;FLAVOR:Marlin
;TIME:737
;Filament used: 0.396648m
;Layer height: 0.2
;MINX:108.5
;MINY:107.7
;MINZ:0.2
;MAXX:142.592
;MAXY:128.161
;MAXZ:8
;Generated with Cura_SteamEngine 4.9.1
M140 S50
M105
M190 S50
M104 S200
M105
M109 S200
M82 ;absolute extrusion mode
; Ender 3 Custom Start G-code
G92 E0 ; Reset Extruder
G28 ; Home all axes
G1 Z2.0 F3000 ; Move Z Axis up little to prevent scratching of Heat Bed
G1 X0.1 Y20 Z0.3 F5000.0 ; Move to start position
G1 X0.1 Y200.0 Z0.3 F1500.0 E15 ; Draw the first line
G1 X0.4 Y200.0 Z0.3 F5000.0 ; Move to side a little
G1 X0.4 Y20 Z0.3 F1500.0 E30 ; Draw the second line
G92 E0 ; Reset Extruder
G1 Z2.0 F3000 ; Move Z Axis up little to prevent scratching of Heat Bed
G1 X5 Y20 Z0.3 F5000.0 ; Move over to prevent blob squish
G92 E0
G92 E0
G1 F2700 E-5
;LAYER_COUNT:40
;LAYER:0
M107
;MESH:Button-Power (Meshed).stl
G0 F6000 X113.1 Y126.6 Z0.2
;TYPE:WALL-INNER
G1 F2700 E0
G1 F1200 X108.9 Y126.6 E0.13969
G1 X108.9 Y108.4 E0.74503
G1 X113.1 Y108.4 E0.88472
G1 X113.1 Y126.6 E1.49005
G0 F6000 X113.5 Y127
;TYPE:WALL-OUTER
G1 F1200 X108.5 Y127 E1.65635
G1 X108.5 Y108 E2.2883
G1 X113.5 Y108 E2.4546
G1 X113.5 Y127 E3.08654
G0 F6000 X113.23 Y126.73
G0 X112.99 Y126.21
G0 X112.71 Y126.21
;TYPE:SKIN
G1 F1200 X109.29 Y126.21 E3.20029
G1 X109.29 Y108.79 E3.77968
G1 X112.71 Y108.79 E3.89343
G1 X112.71 Y126.21 E4.47282
G0 F6000 X112.99 Y126.21
G0 X109.643 Y126.49
G0 X109.643 Y126.048
G1 F1200 X109.449 Y125.854 E4.48195
G0 F6000 X109.449 Y125.288
G1 F1200 X110.209 Y126.048 E4.5177
G0 F6000 X110.775 Y126.048
G1 F1200 X109.449 Y124.723 E4.58004
G0 F6000 X109.449 Y124.157
G1 F1200 X111.341 Y126.048 E4.66901
G0 F6000 X111.906 Y126.048
G1 F1200 X109.449 Y123.591 E4.78458
G0 F6000 X109.449 Y123.025
G1 F1200 X112.472 Y126.048 E4.92678
G0 F6000 X112.55 Y125.56
G1 F1200 X109.449 Y122.46 E5.07261
G0 F6000 X109.449 Y121.894
G1 F1200 X112.55 Y124.995 E5.21848
G0 F6000 X112.55 Y124.429
G1 F1200 X109.449 Y121.328 E5.36434
G0 F6000 X109.449 Y120.763
G1 F1200 X112.55 Y123.863 E5.51018
G0 F6000 X112.55 Y123.298
G1 F1200 X109.449 Y120.197 E5.65604
G0 F6000 X109.449 Y119.631
G1 F1200 X112.55 Y122.732 E5.8019
G0 F6000 X112.55 Y122.166
G1 F1200 X109.449 Y119.066 E5.94774
G0 F6000 X109.449 Y118.5
G1 F1200 X112.55 Y121.601 E6.0936
G0 F6000 X112.55 Y121.035
G1 F1200 X109.449 Y117.934 E6.23946
G0 F6000 X109.449 Y117.369
G1 F1200 X112.55 Y120.469 E6.3853
G0 F6000 X112.55 Y119.904
G1 F1200 X109.449 Y116.803 E6.53116
G0 F6000 X109.449 Y116.237
G1 F1200 X112.55 Y119.338 E6.67702
G0 F6000 X112.55 Y118.772
G1 F1200 X109.449 Y115.672 E6.82286
G0 F6000 X109.449 Y115.106
G1 F1200 X112.55 Y118.207 E6.96872
G0 F6000 X112.55 Y117.641
G1 F1200 X109.449 Y114.54 E7.11458
G0 F6000 X109.449 Y113.975
G1 F1200 X112.55 Y117.075 E7.26042
G0 F6000 X112.55 Y116.509
G1 F1200 X109.449 Y113.409 E7.40626
G0 F6000 X109.449 Y112.843
G1 F1200 X112.55 Y115.944 E7.55212
G0 F6000 X112.55 Y115.378
G1 F1200 X109.449 Y112.277 E7.69798
G0 F6000 X109.449 Y111.712
G1 F1200 X112.55 Y114.812 E7.84382
G0 F6000 X112.55 Y114.247
G1 F1200 X109.449 Y111.146 E7.98968
G0 F6000 X109.449 Y110.58
G1 F1200 X112.55 Y113.681 E8.13554
G0 F6000 X112.55 Y113.115
G1 F1200 X109.449 Y110.015 E8.28138
G0 F6000 X109.449 Y109.449
G1 F1200 X112.55 Y112.55 E8.42724
G0 F6000 X112.55 Y111.984
G1 F1200 X109.515 Y108.95 E8.56998
G0 F6000 X110.081 Y108.95
G1 F1200 X112.55 Y111.418 E8.68609
G0 F6000 X112.55 Y110.853
G1 F1200 X110.647 Y108.95 E8.7756
G0 F6000 X111.213 Y108.95
G1 F1200 X112.55 Y110.287 E8.83849
G0 F6000 X112.55 Y109.721
G1 F1200 X111.778 Y108.95 E8.87477
G0 F6000 X112.344 Y108.95
G1 F1200 X112.55 Y109.156 E8.88446
G0 F6000 X112.9 Y109.156
G1 F2700 E3.88446
;MESH:Button-Enter (Meshed).stl
G0 F6000 X112.99 Y109.156
G0 X113.286 Y126.786
G0 X114.365 Y126.786
G0 X118.45 Y126.786
G0 X119.535 Y126.786
G0 X119.715 Y126.9
;TYPE:WALL-INNER
G1 F2700 E8.88446
G1 F1200 X119.715 Y108.1 E9.50975
G1 X124.915 Y108.1 E9.68271
G1 X124.915 Y126.9 E10.308
G1 X119.715 Y126.9 E10.48095
G0 F6000 X119.315 Y127.3
;TYPE:WALL-OUTER
G1 F1200 X119.315 Y107.7 E11.13285
G1 X125.315 Y107.7 E11.33241
G1 X125.315 Y127.3 E11.98431
G1 X119.315 Y127.3 E12.18387
G0 F6000 X119.585 Y127.03
G0 X119.825 Y126.51
G0 X120.105 Y126.51
;TYPE:SKIN
G1 F1200 X120.105 Y108.49 E12.78322
G1 X124.525 Y108.49 E12.93023
G1 X124.525 Y126.51 E13.52957
G1 X120.105 Y126.51 E13.67658
G0 F6000 X120.692 Y126.349
G1 F1200 X120.264 Y125.921 E13.69672
G0 F6000 X120.264 Y125.355
G1 F1200 X121.258 Y126.349 E13.74347
G0 F6000 X121.823 Y126.349
G1 F1200 X120.264 Y124.79 E13.8168
G0 F6000 X120.264 Y124.224
G1 F1200 X122.389 Y126.349 E13.91675
G0 F6000 X122.955 Y126.349
G1 F1200 X120.264 Y123.658 E14.04333
G0 F6000 X120.264 Y123.093
G1 F1200 X123.52 Y126.349 E14.19648
G0 F6000 X124.086 Y126.349
G1 F1200 X120.264 Y122.527 E14.37626
G0 F6000 X120.264 Y121.961
G1 F1200 X124.365 Y126.062 E14.56916
G0 F6000 X124.365 Y125.496
G1 F1200 X120.264 Y121.396 E14.76203
G0 F6000 X120.264 Y120.83
G1 F1200 X124.365 Y124.93 E14.95491
G0 F6000 X124.365 Y124.365
G1 F1200 X120.264 Y120.264 E15.14781
G0 F6000 X120.264 Y119.699
G1 F1200 X124.365 Y123.799 E15.34068
G0 F6000 X124.365 Y123.233
G1 F1200 X120.264 Y119.133 E15.53356
G0 F6000 X120.264 Y118.567
G1 F1200 X124.365 Y122.668 E15.72645
G0 F6000 X124.365 Y122.102
G1 F1200 X120.264 Y118.001 E15.91935
G0 F6000 X120.264 Y117.436
G1 F1200 X124.365 Y121.536 E16.11223
G0 F6000 X124.365 Y120.971
G1 F1200 X120.264 Y116.87 E16.30513
G0 F6000 X120.264 Y116.304
G1 F1200 X124.365 Y120.405 E16.49802
G0 F6000 X124.365 Y119.839
G1 F1200 X120.264 Y115.739 E16.6909
G0 F6000 X120.264 Y115.173
G1 F1200 X124.365 Y119.274 E16.8838
G0 F6000 X124.365 Y118.708
G1 F1200 X120.264 Y114.607 E17.0767
G0 F6000 X120.264 Y114.042
G1 F1200 X124.365 Y118.142 E17.26957
G0 F6000 X124.365 Y117.577
G1 F1200 X120.264 Y113.476 E17.46247
G0 F6000 X120.264 Y112.91
G1 F1200 X124.365 Y117.011 E17.65537
G0 F6000 X124.365 Y116.445
G1 F1200 X120.264 Y112.345 E17.84824
G0 F6000 X120.264 Y111.779
G1 F1200 X124.365 Y115.879 E18.04112
G0 F6000 X124.365 Y115.314
G1 F1200 X120.264 Y111.213 E18.23402
G0 F6000 X120.264 Y110.648
G1 F1200 X124.365 Y114.748 E18.42689
G0 F6000 X124.365 Y114.182
G1 F1200 X120.264 Y110.082 E18.61977
G0 F6000 X120.264 Y109.516
G1 F1200 X124.365 Y113.617 E18.81266
G0 F6000 X124.365 Y113.051
G1 F1200 X120.264 Y108.951 E19.00554
G0 F6000 X120.529 Y108.649
G1 F1200 X124.365 Y112.485 E19.18597
G0 F6000 X124.365 Y111.92
G1 F1200 X121.094 Y108.649 E19.33983
G0 F6000 X121.66 Y108.649
G1 F1200 X124.365 Y111.354 E19.46707
G0 F6000 X124.365 Y110.788
G1 F1200 X122.226 Y108.649 E19.56768
G0 F6000 X122.791 Y108.649
G1 F1200 X124.365 Y110.223 E19.64171
G0 F6000 X124.365 Y109.657
G1 F1200 X123.357 Y108.649 E19.68913
G0 F6000 X123.923 Y108.649
G1 F1200 X124.365 Y109.091 E19.70992
G0 F6000 X124.715 Y109.091
G1 F2700 E14.70992
;MESH:Button-Guide (Meshed).stl
G0 F6000 X124.805 Y109.091
G0 X125.095 Y121.9
G0 X126.18 Y121.9
G0 X130.127 Y121.9
G0 X132.002 Y121.9
G0 X132.192 Y121.9
;TYPE:WALL-INNER
G1 F2700 E19.70992
G1 F1200 X138.392 Y121.9 E19.91613
G1 X138.392 Y113.1 E20.20882
G1 X132.192 Y113.1 E20.41503
G1 X132.192 Y121.9 E20.70772
G0 F6000 X132.592 Y121.5
;TYPE:WALL-OUTER
G1 F1200 X137.992 Y121.5 E20.88733
G1 X137.992 Y113.5 E21.15341
G1 X132.592 Y113.5 E21.33301
G1 X132.592 Y121.5 E21.59909
G1 F2700 E16.59909
G0 F6000 X132.292 Y121.5
G0 X131.996 Y122.096
G0 X131.602 Y122.096
G0 X131.392 Y124.9
;TYPE:WALL-INNER
G1 F2700 E21.59909
G1 F1200 X131.392 Y110.1 E22.09134
G1 X142.192 Y110.1 E22.45055
G1 X142.192 Y124.9 E22.9428
G1 X131.392 Y124.9 E23.30201
G0 F6000 X130.992 Y125.3
;TYPE:WALL-OUTER
G1 F1200 X130.992 Y109.7 E23.82087
G1 X142.592 Y109.7 E24.20669
G1 X142.592 Y125.3 E24.72555
G1 X130.992 Y125.3 E25.11136
G0 F6000 X131.262 Y125.03
G0 X131.502 Y124.51
G0 X131.782 Y124.51
;TYPE:SKIN
G1 F1200 X131.782 Y110.49 E25.57767
G1 X141.802 Y110.49 E25.91094
G1 X141.802 Y124.51 E26.37724
G1 X131.782 Y124.51 E26.71051
G0 F6000 X131.502 Y124.51
G0 X131.502 Y122.29
G0 X131.802 Y122.29
G1 F1200 X138.782 Y122.29 E26.94267
G1 X138.782 Y112.71 E27.2613
G1 X131.802 Y112.71 E27.49345
G1 X131.802 Y122.29 E27.81209
G0 F6000 X131.502 Y122.29
G0 X131.574 Y124.718
G0 X132.269 Y124.79
G0 X132.269 Y124.349
G1 F1200 X131.941 Y124.021 E27.82751
G0 F6000 X131.941 Y123.455
G1 F1200 X132.834 Y124.349 E27.86954
G0 F6000 X133.4 Y124.349
G1 F1200 X131.941 Y122.89 E27.93817
G0 F6000 X132.067 Y122.45
G1 F1200 X133.966 Y124.349 E28.02749
G0 F6000 X134.532 Y124.349
G1 F1200 X132.632 Y122.45 E28.11684
G0 F6000 X133.198 Y122.45
G1 F1200 X135.097 Y124.349 E28.20616
G0 F6000 X135.663 Y124.349
G1 F1200 X133.764 Y122.45 E28.29549
G0 F6000 X134.329 Y122.45
G1 F1200 X136.229 Y124.349 E28.38483
G0 F6000 X136.794 Y124.349
G1 F1200 X134.895 Y122.45 E28.47416
G0 F6000 X135.461 Y122.45
G1 F1200 X137.36 Y124.349 E28.56348
G0 F6000 X137.926 Y124.349
G1 F1200 X136.026 Y122.45 E28.65282
G0 F6000 X136.592 Y122.45
G1 F1200 X138.491 Y124.349 E28.74215
G0 F6000 X139.057 Y124.349
G1 F1200 X137.158 Y122.45 E28.83147
G0 F6000 X137.723 Y122.45
G1 F1200 X139.623 Y124.349 E28.92082
G0 F6000 X140.188 Y124.349
G1 F1200 X138.289 Y122.45 E29.01014
G0 F6000 X138.855 Y122.45
G1 F1200 X140.754 Y124.349 E29.09946
G0 F6000 X141.32 Y124.349
G1 F1200 X138.94 Y121.97 E29.21139
G0 F6000 X138.94 Y121.404
G1 F1200 X141.641 Y124.105 E29.33844
G0 F6000 X141.641 Y123.539
G1 F1200 X138.94 Y120.838 E29.46548
G0 F6000 X138.94 Y120.273
G1 F1200 X141.641 Y122.973 E29.59251
G0 F6000 X141.641 Y122.407
G1 F1200 X138.94 Y119.707 E29.71953
G0 F6000 X138.94 Y119.141
G1 F1200 X141.641 Y121.842 E29.84658
G0 F6000 X141.641 Y121.276
G1 F1200 X138.94 Y118.576 E29.9736
G0 F6000 X138.94 Y118.01
G1 F1200 X141.641 Y120.71 E30.10062
G0 F6000 X141.641 Y120.145
G1 F1200 X138.94 Y117.444 E30.22767
G0 F6000 X138.94 Y116.879
G1 F1200 X141.641 Y119.579 E30.35469
G0 F6000 X141.641 Y119.013
G1 F1200 X138.94 Y116.313 E30.48171
G0 F6000 X138.94 Y115.747
G1 F1200 X141.641 Y118.448 E30.60876
G0 F6000 X141.641 Y117.882
G1 F1200 X138.94 Y115.182 E30.73578
G0 F6000 X138.94 Y114.616
G1 F1200 X141.641 Y117.316 E30.86281
G0 F6000 X141.641 Y116.751
G1 F1200 X138.94 Y114.05 E30.98985
G0 F6000 X138.94 Y113.484
G1 F1200 X141.641 Y116.185 E31.1169
G0 F6000 X141.641 Y115.619
G1 F1200 X138.94 Y112.919 E31.24392
G0 F6000 X138.571 Y112.549
G1 F1200 X136.671 Y110.65 E31.33327
G0 F6000 X136.106 Y110.65
G1 F1200 X138.005 Y112.549 E31.42259
G0 F6000 X137.439 Y112.549
G1 F1200 X135.54 Y110.65 E31.51192
G0 F6000 X134.974 Y110.65
G1 F1200 X136.873 Y112.549 E31.60124
G0 F6000 X136.308 Y112.549
G1 F1200 X134.408 Y110.65 E31.69059
G0 F6000 X133.843 Y110.65
G1 F1200 X135.742 Y112.549 E31.77991
G0 F6000 X135.176 Y112.549
G1 F1200 X133.277 Y110.65 E31.86923
G0 F6000 X132.711 Y110.65
G1 F1200 X134.611 Y112.549 E31.95858
G0 F6000 X134.045 Y112.549
G1 F1200 X132.146 Y110.65 E32.0479
G0 F6000 X131.941 Y111.01
G1 F1200 X133.479 Y112.549 E32.12027
G0 F6000 X132.914 Y112.549
G1 F1200 X131.941 Y111.576 E32.16604
G0 F6000 X131.941 Y112.142
G1 F1200 X132.348 Y112.549 E32.18518
G1 F2700 E27.18518
G0 F6000 X132.348 Y112.99
G0 X137.237 Y112.91
G0 X137.237 Y110.31
G0 X137.237 Y110.65
G1 F2700 E32.18518
G1 F1200 X141.641 Y115.054 E32.39233
G0 F6000 X141.641 Y114.488
G1 F1200 X137.803 Y110.65 E32.57286
G0 F6000 X138.368 Y110.65
G1 F1200 X141.641 Y113.922 E32.72679
G0 F6000 X141.641 Y113.356
G1 F1200 X138.934 Y110.65 E32.85409
G0 F6000 X139.5 Y110.65
G1 F1200 X141.641 Y112.791 E32.9548
G0 F6000 X141.641 Y112.225
G1 F1200 X140.065 Y110.65 E33.02891
G0 F6000 X140.631 Y110.65
G1 F1200 X141.641 Y111.659 E33.07639
G0 F6000 X141.641 Y111.094
G1 F1200 X141.197 Y110.65 E33.09727
G0 F6000 X141.197 Y110.3
G1 F2700 E28.09727
;MESH:NONMESH
G0 F300 X141.197 Y110.3 Z0.4
G0 F6000 X141.197 Y110.21
G0 X131.574 Y110.282
G0 X131.206 Y125.086
G0 X130.127 Y125.086
G0 X125.672 Y128.161
G0 X118.958 Y128.161
G0 X114.365 Y125.086
G0 X113.28 Y125.086
G0 X113.1 Y126.6
;TIME_ELAPSED:69.620410
;LAYER:1
M106 S85
;TYPE:WALL-INNER
;MESH:Button-Power (Meshed).stl
G1 F2700 E33.09727
G1 F1500 X108.9 Y126.6 E33.23697
G1 X108.9 Y108.4 E33.8423
G1 X113.1 Y108.4 E33.98199
G1 X113.1 Y126.6 E34.58733
G0 F7500 X113.5 Y127
;TYPE:WALL-OUTER
G1 F1500 X108.5 Y127 E34.75363
G1 X108.5 Y108 E35.38557
G1 X113.5 Y108 E35.55187
G1 X113.5 Y127 E36.18381
G0 F7500 X113.23 Y126.73
G0 X112.99 Y126.21
G0 X112.71 Y126.21
;TYPE:SKIN
G1 F1500 X109.29 Y126.21 E36.29756
G1 X109.29 Y108.79 E36.87696
G1 X112.71 Y108.79 E36.99071
G1 X112.71 Y126.21 E37.5701
G0 F7500 X112.104 Y126.048
G1 F1500 X112.549 Y125.604 E37.59101
G0 F7500 X112.549 Y125.038
G1 F1500 X111.539 Y126.048 E37.63851
G0 F7500 X110.973 Y126.048
G1 F1500 X112.549 Y124.472 E37.71264
G0 F7500 X112.549 Y123.907
G1 F1500 X110.407 Y126.048 E37.81337
G0 F7500 X109.841 Y126.048
G1 F1500 X112.549 Y123.341 E37.94072
G0 F7500 X112.549 Y122.775
G1 F1500 X109.45 Y125.874 E38.08649
G0 F7500 X109.45 Y125.309
G1 F1500 X112.549 Y122.209 E38.23228
G0 F7500 X112.549 Y121.644
G1 F1500 X109.45 Y124.743 E38.37805
G0 F7500 X109.45 Y124.177
G1 F1500 X112.549 Y121.078 E38.52382
G0 F7500 X112.549 Y120.512
G1 F1500 X109.45 Y123.612 E38.66961
G0 F7500 X109.45 Y123.046
G1 F1500 X112.549 Y119.947 E38.81538
G0 F7500 X112.549 Y119.381
G1 F1500 X109.45 Y122.48 E38.96114
G0 F7500 X109.45 Y121.915
G1 F1500 X112.549 Y118.815 E39.10694
G0 F7500 X112.549 Y118.25
G1 F1500 X109.45 Y121.349 E39.2527
G0 F7500 X109.45 Y120.783
G1 F1500 X112.549 Y117.684 E39.39847
G0 F7500 X112.549 Y117.118
G1 F1500 X109.45 Y120.218 E39.54426
G0 F7500 X109.45 Y119.652
G1 F1500 X112.549 Y116.553 E39.69003
G0 F7500 X112.549 Y115.987
G1 F1500 X109.45 Y119.086 E39.8358
G0 F7500 X109.45 Y118.52
G1 F1500 X112.549 Y115.421 E39.98156
G0 F7500 X112.549 Y114.856
G1 F1500 X109.45 Y117.955 E40.12733
G0 F7500 X109.45 Y117.389
G1 F1500 X112.549 Y114.29 E40.2731
G0 F7500 X112.549 Y113.724
G1 F1500 X109.45 Y116.823 E40.41887
G0 F7500 X109.45 Y116.258
G1 F1500 X112.549 Y113.159 E40.56463
G0 F7500 X112.549 Y112.593
G1 F1500 X109.45 Y115.692 E40.7104
G0 F7500 X109.45 Y115.126
G1 F1500 X112.549 Y112.027 E40.85617
G0 F7500 X112.549 Y111.461
G1 F1500 X109.45 Y114.561 E41.00196
G0 F7500 X109.45 Y113.995
G1 F1500 X112.549 Y110.896 E41.14773
G0 F7500 X112.549 Y110.33
G1 F1500 X109.45 Y113.429 E41.29349
G0 F7500 X109.45 Y112.864
G1 F1500 X112.549 Y109.764 E41.43928
G0 F7500 X112.549 Y109.199
G1 F1500 X109.45 Y112.298 E41.58505
G0 F7500 X109.45 Y111.732
G1 F1500 X112.232 Y108.95 E41.71591
G0 F7500 X111.667 Y108.95
G1 F1500 X109.45 Y111.167 E41.82019
G0 F7500 X109.45 Y110.601
G1 F1500 X111.101 Y108.95 E41.89785
G0 F7500 X110.535 Y108.95
G1 F1500 X109.45 Y110.035 E41.94888
G0 F7500 X109.45 Y109.47
G1 F1500 X109.969 Y108.95 E41.97332
G0 F7500 X109.969 Y108.6
G1 F2700 E36.97332
;MESH:Button-Enter (Meshed).stl
G0 F7500 X109.969 Y108.51
G0 X112.918 Y108.582
G0 X113.286 Y126.786
G0 X114.365 Y126.786
G0 X118.45 Y126.786
G0 X119.535 Y126.786
G0 X119.715 Y126.9
;TYPE:WALL-INNER
G1 F2700 E41.97332
G1 F1500 X119.715 Y108.1 E42.59861
G1 X124.915 Y108.1 E42.77156
G1 X124.915 Y126.9 E43.39685
G1 X119.715 Y126.9 E43.56981
G0 F7500 X119.315 Y127.3
;TYPE:WALL-OUTER
G1 F1500 X119.315 Y107.7 E44.2217
G1 X125.315 Y107.7 E44.42126
G1 X125.315 Y127.3 E45.07316
G1 X119.315 Y127.3 E45.27272
G0 F7500 X119.585 Y127.03
G0 X119.825 Y126.51
G0 X120.105 Y126.51
;TYPE:SKIN
G1 F1500 X120.105 Y108.49 E45.87207
G1 X124.525 Y108.49 E46.01908
G1 X124.525 Y126.51 E46.61843
G1 X120.105 Y126.51 E46.76544
G0 F7500 X119.825 Y126.51
G0 X124.249 Y126.79
G0 X124.249 Y126.349
G1 F1500 X124.364 Y126.234 E46.77085
G0 F7500 X124.364 Y125.668
G1 F1500 X123.683 Y126.349 E46.80288
G0 F7500 X123.117 Y126.349
G1 F1500 X124.364 Y125.102 E46.86154
G0 F7500 X124.364 Y124.537
G1 F1500 X122.552 Y126.349 E46.94677
G0 F7500 X121.986 Y126.349
G1 F1500 X124.364 Y123.971 E47.05862
G0 F7500 X124.364 Y123.405
G1 F1500 X121.42 Y126.349 E47.1971
G0 F7500 X120.855 Y126.349
G1 F1500 X124.364 Y122.84 E47.36215
G0 F7500 X124.364 Y122.274
G1 F1500 X120.289 Y126.349 E47.55383
G0 F7500 X120.265 Y125.807
G1 F1500 X124.364 Y121.708 E47.74663
