;FLAVOR:Marlin
;TIME:3091
;Filament used: 2.25673m
;Layer height: 0.2
;MINX:90.671
;MINY:94.835
;MINZ:0.2
;MAXX:163.723
;MAXY:140.165
;MAXZ:12.6
;Generated with Cura_SteamEngine 4.9.1
M140 S50
M105
M190 S50
M104 S200
M105
M109 S200
M82 ;absolute extrusion mode
; Ender 3 Custom Start G-code
G92 E0 ; Reset Extruder
G28 ; Home all axes
G1 Z2.0 F3000 ; Move Z Axis up little to prevent scratching of Heat Bed
G1 X0.1 Y20 Z0.3 F5000.0 ; Move to start position
G1 X0.1 Y200.0 Z0.3 F1500.0 E15 ; Draw the first line
G1 X0.4 Y200.0 Z0.3 F5000.0 ; Move to side a little
G1 X0.4 Y20 Z0.3 F1500.0 E30 ; Draw the second line
G92 E0 ; Reset Extruder
G1 Z2.0 F3000 ; Move Z Axis up little to prevent scratching of Heat Bed
G1 X5 Y20 Z0.3 F5000.0 ; Move over to prevent blob squish
G92 E0
G92 E0
G1 F2700 E-5
;LAYER_COUNT:63
;LAYER:0
M107
G0 F6000 X108.289 Y117.168 Z0.2
;TYPE:SKIRT
G1 F2700 E0
G1 F1200 X108.485 Y117.115 E0.00675
G1 X108.681 Y117.168 E0.01351
G1 X108.817 Y117.304 E0.0199
G1 X108.87 Y117.5 E0.02666
G1 X108.817 Y117.696 E0.03341
G1 X108.681 Y117.832 E0.03981
G1 X108.485 Y117.885 E0.04656
G1 X108.289 Y117.832 E0.05331
G1 X108.153 Y117.696 E0.05971
G1 X108.1 Y117.5 E0.06646
G1 X108.153 Y117.304 E0.07322
G1 X108.289 Y117.168 E0.07961
G0 F6000 X108.091 Y116.817
G1 F1200 X108.282 Y116.738 E0.08649
G1 X108.485 Y116.711 E0.0933
G1 X108.688 Y116.738 E0.10011
G1 X108.879 Y116.817 E0.10698
G1 X109.043 Y116.942 E0.11384
G1 X109.168 Y117.106 E0.1207
G1 X109.247 Y117.297 E0.12758
G1 X109.274 Y117.5 E0.13439
G1 X109.247 Y117.703 E0.1412
G1 X109.168 Y117.894 E0.14807
G1 X109.043 Y118.058 E0.15493
G1 X108.879 Y118.183 E0.16179
G1 X108.688 Y118.262 E0.16867
G1 X108.485 Y118.289 E0.17548
G1 X108.282 Y118.262 E0.18229
G1 X108.091 Y118.183 E0.18916
G1 X107.927 Y118.058 E0.19602
G1 X107.802 Y117.894 E0.20288
G1 X107.723 Y117.703 E0.20975
G1 X107.696 Y117.5 E0.21657
G1 X107.723 Y117.297 E0.22338
G1 X107.802 Y117.106 E0.23025
G1 X107.927 Y116.942 E0.23711
G1 X108.091 Y116.817 E0.24397
G0 F6000 X107.887 Y116.469
G1 F1200 X108.181 Y116.347 E0.25455
G1 X108.485 Y116.307 E0.26475
G1 X108.789 Y116.347 E0.27495
G1 X109.083 Y116.469 E0.28554
G1 X109.328 Y116.657 E0.29581
G1 X109.516 Y116.902 E0.30608
G1 X109.638 Y117.196 E0.31667
G1 X109.678 Y117.5 E0.32687
G1 X109.638 Y117.804 E0.33706
G1 X109.516 Y118.098 E0.34765
G1 X109.328 Y118.343 E0.35792
G1 X109.083 Y118.531 E0.36819
G1 X108.789 Y118.653 E0.37878
G1 X108.485 Y118.693 E0.38898
G1 X108.181 Y118.653 E0.39918
G1 X107.887 Y118.531 E0.40976
G1 X107.642 Y118.343 E0.42004
G1 X107.454 Y118.098 E0.43031
G1 X107.332 Y117.804 E0.44089
G1 X107.292 Y117.5 E0.45109
G1 X107.332 Y117.196 E0.46129
G1 X107.454 Y116.902 E0.47188
G1 X107.642 Y116.657 E0.48215
G1 X107.887 Y116.469 E0.49242
G1 F2700 E-4.50758
;MESH:Button-Cross (Meshed).stl
G0 F6000 X108.087 Y118.978
G0 X107.812 Y120.015
G0 X108.485 Y120.305
;TYPE:WALL-INNER
G1 F2700 E0.49242
G1 F1200 X109.21 Y120.21 E0.51674
G1 X109.887 Y119.93 E0.54111
G1 X110.469 Y119.484 E0.56549
G1 X110.915 Y118.902 E0.58988
G1 X111.195 Y118.225 E0.61425
G1 X111.29 Y117.5 E0.63857
G1 X111.195 Y116.775 E0.66289
G1 X110.915 Y116.098 E0.68726
G1 X110.469 Y115.516 E0.71164
G1 X109.887 Y115.07 E0.73603
G1 X109.21 Y114.79 E0.7604
G1 X108.485 Y114.695 E0.78472
G1 X107.76 Y114.79 E0.80904
G1 X107.083 Y115.07 E0.8334
G1 X106.501 Y115.516 E0.85779
G1 X106.055 Y116.098 E0.88218
G1 X105.775 Y116.775 E0.90655
G1 X105.68 Y117.5 E0.93087
G1 X105.775 Y118.225 E0.95519
G1 X106.055 Y118.902 E0.97955
G1 X106.501 Y119.484 E1.00394
G1 X107.083 Y119.93 E1.02833
G1 X107.76 Y120.21 E1.0527
G1 X108.485 Y120.305 E1.07702
G0 F6000 X108.485 Y119.902
;TYPE:WALL-OUTER
G1 F1200 X109.106 Y119.82 E1.09785
G1 X109.686 Y119.58 E1.11873
G1 X110.184 Y119.199 E1.13958
G1 X110.565 Y118.701 E1.16044
G1 X110.805 Y118.121 E1.18131
G1 X110.887 Y117.5 E1.20215
G1 X110.805 Y116.879 E1.22298
G1 X110.565 Y116.299 E1.24386
G1 X110.184 Y115.801 E1.26471
G1 X109.686 Y115.42 E1.28557
G1 X109.106 Y115.18 E1.30645
G1 X108.485 Y115.098 E1.32728
G1 X107.864 Y115.18 E1.34811
G1 X107.284 Y115.42 E1.36899
G1 X106.786 Y115.801 E1.38985
G1 X106.405 Y116.299 E1.4107
G1 X106.165 Y116.879 E1.43158
G1 X106.083 Y117.5 E1.45241
G1 X106.165 Y118.121 E1.47325
G1 X106.405 Y118.701 E1.49412
G1 X106.786 Y119.199 E1.51498
G1 X107.284 Y119.58 E1.53583
G1 X107.864 Y119.82 E1.55671
G1 X108.485 Y119.902 E1.57754
G0 F6000 X108.485 Y120.342
G1 F2700 E-3.42246
G0 F6000 X108.485 Y119.03
G0 X108.485 Y140.165
G0 X108.485 Y138.69
G0 X110.195 Y138.9
;TYPE:WALL-INNER
G1 F2700 E1.57754
G1 F1200 X106.775 Y138.9 E1.69129
G1 X105.859 Y138.78 E1.72202
G1 X105.037 Y138.439 E1.75162
G1 X104.335 Y137.9 E1.78106
G1 X103.796 Y137.198 E1.81049
G1 X103.455 Y136.376 E1.84009
G1 X103.335 Y135.45 E1.87115
G1 X103.335 Y133.9 E1.9227
G1 X101.335 Y133.9 E1.98922
G1 X101.335 Y125.9 E2.2553
G1 X96.335 Y125.9 E2.4216
G1 X96.335 Y123.9 E2.48812
G1 X95.275 Y123.9 E2.52338
G1 X94.359 Y123.78 E2.55411
G1 X93.537 Y123.439 E2.58371
G1 X92.835 Y122.9 E2.61314
G1 X92.296 Y122.198 E2.64258
G1 X91.955 Y121.376 E2.67218
G1 X91.835 Y120.46 E2.70291
G1 X91.835 Y114.54 E2.89981
G1 X91.955 Y113.624 E2.93053
G1 X92.296 Y112.802 E2.96013
G1 X92.835 Y112.1 E2.98957
G1 X93.537 Y111.561 E3.01901
G1 X94.359 Y111.22 E3.0486
G1 X95.28 Y111.1 E3.0795
G1 X96.335 Y111.1 E3.11458
G1 X96.335 Y109.1 E3.18111
G1 X101.335 Y109.1 E3.34741
G1 X101.335 Y101.1 E3.61349
G1 X103.335 Y101.1 E3.68001
G1 X103.335 Y99.539 E3.73193
G1 X103.455 Y98.625 E3.76259
G1 X103.796 Y97.802 E3.79222
G1 X104.335 Y97.1 E3.82165
G1 X105.037 Y96.561 E3.85109
G1 X105.859 Y96.22 E3.88069
G1 X106.775 Y96.1 E3.91142
G1 X110.203 Y96.101 E4.02543
G1 X111.111 Y96.22 E4.05589
G1 X111.933 Y96.561 E4.08549
G1 X112.635 Y97.1 E4.11493
G1 X113.174 Y97.802 E4.14436
G1 X113.515 Y98.624 E4.17396
G1 X113.635 Y99.55 E4.20502
G1 X113.635 Y101.1 E4.25657
G1 X115.635 Y101.1 E4.32309
G1 X115.635 Y109.1 E4.58917
G1 X120.635 Y109.1 E4.75547
G1 X120.635 Y111.1 E4.82199
G1 X121.695 Y111.1 E4.85725
G1 X122.611 Y111.22 E4.88798
G1 X123.433 Y111.561 E4.91758
G1 X124.135 Y112.1 E4.94701
G1 X124.674 Y112.802 E4.97645
G1 X125.015 Y113.624 E5.00605
G1 X125.135 Y114.54 E5.03678
G1 X125.135 Y120.46 E5.23368
G1 X125.015 Y121.376 E5.2644
G1 X124.674 Y122.198 E5.294
G1 X124.135 Y122.9 E5.32344
G1 X123.433 Y123.439 E5.35288
G1 X122.611 Y123.78 E5.38247
G1 X121.69 Y123.9 E5.41337
G1 X120.635 Y123.9 E5.44846
G1 X120.635 Y125.9 E5.51498
G1 X115.635 Y125.9 E5.68128
G1 X115.635 Y133.9 E5.94736
G1 X113.635 Y133.9 E6.01388
G1 X113.635 Y135.46 E6.06576
G1 X113.515 Y136.376 E6.09649
G1 X113.174 Y137.198 E6.12609
G1 X112.635 Y137.9 E6.15553
G1 X111.933 Y138.439 E6.18496
G1 X111.111 Y138.78 E6.21456
G1 X110.195 Y138.9 E6.24529
G0 F6000 X110.224 Y139.3
;TYPE:WALL-OUTER
G1 F1200 X106.746 Y139.3 E6.36097
G1 X105.755 Y139.17 E6.39421
G1 X104.836 Y138.789 E6.4273
G1 X104.05 Y138.185 E6.46027
G1 X103.446 Y137.399 E6.49324
G1 X103.065 Y136.48 E6.52633
G1 X102.935 Y135.479 E6.5599
G1 X102.935 Y134.3 E6.59911
G1 X100.935 Y134.3 E6.66564
G1 X100.935 Y126.3 E6.93172
G1 X95.935 Y126.3 E7.09802
G1 X95.935 Y124.3 E7.16454
G1 X95.246 Y124.3 E7.18745
G1 X94.255 Y124.17 E7.2207
G1 X93.336 Y123.789 E7.25379
G1 X92.55 Y123.185 E7.28675
G1 X91.946 Y122.399 E7.31972
G1 X91.565 Y121.48 E7.35281
G1 X91.435 Y120.489 E7.38606
G1 X91.435 Y114.511 E7.58489
G1 X91.565 Y113.52 E7.61813
G1 X91.946 Y112.601 E7.65122
G1 X92.55 Y111.815 E7.68419
G1 X93.336 Y111.211 E7.71716
G1 X94.255 Y110.83 E7.75025
G1 X95.251 Y110.7 E7.78365
G1 X95.935 Y110.7 E7.8064
G1 X95.935 Y108.7 E7.87292
G1 X100.935 Y108.7 E8.03922
G1 X100.935 Y100.7 E8.30531
G1 X102.935 Y100.7 E8.37183
G1 X102.935 Y99.51 E8.41141
G1 X103.065 Y98.52 E8.44462
G1 X103.446 Y97.601 E8.4777
G1 X104.05 Y96.815 E8.51067
G1 X104.836 Y96.211 E8.54364
G1 X105.755 Y95.83 E8.57673
G1 X106.746 Y95.7 E8.60998
G1 X110.232 Y95.701 E8.72592
G1 X111.215 Y95.83 E8.7589
G1 X112.134 Y96.211 E8.79198
G1 X112.92 Y96.815 E8.82495
G1 X113.524 Y97.601 E8.85792
G1 X113.905 Y98.52 E8.89101
G1 X114.035 Y99.521 E8.92459
G1 X114.035 Y100.7 E8.9638
G1 X116.035 Y100.7 E9.03032
G1 X116.035 Y108.7 E9.2964
G1 X121.035 Y108.7 E9.4627
G1 X121.035 Y110.7 E9.52922
G1 X121.724 Y110.7 E9.55214
G1 X122.715 Y110.83 E9.58538
G1 X123.634 Y111.211 E9.61847
G1 X124.42 Y111.815 E9.65144
G1 X125.024 Y112.601 E9.68441
G1 X125.405 Y113.52 E9.7175
G1 X125.535 Y114.511 E9.75074
G1 X125.535 Y120.489 E9.94957
G1 X125.405 Y121.48 E9.98281
G1 X125.024 Y122.399 E10.0159
G1 X124.42 Y123.185 E10.04887
G1 X123.634 Y123.789 E10.08184
G1 X122.715 Y124.17 E10.11493
G1 X121.719 Y124.3 E10.14834
G1 X121.035 Y124.3 E10.17109
G1 X121.035 Y126.3 E10.23761
G1 X116.035 Y126.3 E10.40391
G1 X116.035 Y134.3 E10.66999
G1 X114.035 Y134.3 E10.73651
G1 X114.035 Y135.489 E10.77606
G1 X113.905 Y136.48 E10.8093
G1 X113.524 Y137.399 E10.84239
G1 X112.92 Y138.185 E10.87536
G1 X112.134 Y138.789 E10.90833
G1 X111.215 Y139.17 E10.94142
G1 X110.224 Y139.3 E10.97466
G0 F6000 X110.196 Y138.861
G0 X110.174 Y138.51
;TYPE:SKIN
G1 F1200 X106.796 Y138.51 E11.08701
G1 X105.963 Y138.401 E11.11496
G1 X105.237 Y138.1 E11.1411
G1 X104.614 Y137.621 E11.16723
G1 X104.135 Y136.998 E11.19337
G1 X103.834 Y136.271 E11.21954
G1 X103.725 Y135.43 E11.24775
G1 X103.725 Y133.51 E11.31161
G1 X101.725 Y133.51 E11.37813
G1 X101.725 Y125.51 E11.64421
G1 X96.725 Y125.51 E11.81051
G1 X96.725 Y123.51 E11.87703
G1 X95.296 Y123.51 E11.92456
G1 X94.463 Y123.401 E11.9525
G1 X93.737 Y123.1 E11.97864
G1 X93.114 Y122.621 E12.00478
G1 X92.635 Y121.998 E12.03091
G1 X92.334 Y121.272 E12.05705
G1 X92.225 Y120.439 E12.085
G1 X92.225 Y114.561 E12.2805
G1 X92.334 Y113.728 E12.30844
G1 X92.635 Y113.002 E12.33458
G1 X93.114 Y112.379 E12.36072
G1 X93.737 Y111.9 E12.38686
G1 X94.464 Y111.599 E12.41303
G1 X95.3 Y111.49 E12.44107
G1 X96.725 Y111.49 E12.48846
G1 X96.725 Y109.49 E12.55498
G1 X101.725 Y109.49 E12.72128
G1 X101.725 Y101.49 E12.98737
G1 X103.725 Y101.49 E13.05389
G1 X103.725 Y99.56 E13.11808
G1 X103.833 Y98.733 E13.14582
G1 X104.138 Y97.999 E13.17225
G1 X104.614 Y97.379 E13.19825
G1 X105.237 Y96.9 E13.22439
G1 X105.963 Y96.599 E13.25053
G1 X106.796 Y96.49 E13.27847
G1 X110.182 Y96.491 E13.39109
G1 X111.007 Y96.599 E13.41876
G1 X111.733 Y96.9 E13.4449
G1 X112.356 Y97.379 E13.47104
G1 X112.835 Y98.002 E13.49718
G1 X113.136 Y98.729 E13.52335
G1 X113.245 Y99.57 E13.55156
G1 X113.245 Y101.49 E13.61542
G1 X115.245 Y101.49 E13.68194
G1 X115.245 Y109.49 E13.94802
G1 X120.245 Y109.49 E14.11432
G1 X120.245 Y111.49 E14.18084
G1 X121.674 Y111.49 E14.22837
G1 X122.507 Y111.599 E14.25631
G1 X123.233 Y111.9 E14.28245
G1 X123.856 Y112.379 E14.30859
G1 X124.335 Y113.002 E14.33472
G1 X124.636 Y113.728 E14.36086
G1 X124.745 Y114.561 E14.38881
G1 X124.745 Y120.439 E14.58431
G1 X124.636 Y121.272 E14.61225
G1 X124.335 Y121.998 E14.63839
G1 X123.856 Y122.621 E14.66453
G1 X123.233 Y123.1 E14.69067
G1 X122.506 Y123.401 E14.71684
G1 X121.67 Y123.51 E14.74488
G1 X120.245 Y123.51 E14.79227
G1 X120.245 Y125.51 E14.85879
G1 X115.245 Y125.51 E15.02509
G1 X115.245 Y133.51 E15.29118
G1 X113.245 Y133.51 E15.3577
G1 X113.245 Y135.439 E15.42185
G1 X113.136 Y136.272 E15.4498
G1 X112.835 Y136.998 E15.47594
G1 X112.356 Y137.621 E15.50207
G1 X111.733 Y138.1 E15.52821
G1 X111.007 Y138.401 E15.55435
G1 X110.174 Y138.51 E15.58229
G1 F2700 E10.58229
G0 F6000 X110.174 Y138.79
G0 X108.486 Y138.69
G0 X108.486 Y140.165
G0 X108.485 Y119.03
G0 X108.485 Y120.497
G0 X108.485 Y120.699
G1 F2700 E15.58229
G1 F1200 X109.311 Y120.59 E15.61
G1 X110.084 Y120.271 E15.63782
G1 X110.748 Y119.763 E15.66562
G1 X111.256 Y119.099 E15.69343
G1 X111.575 Y118.326 E15.72124
G1 X111.684 Y117.5 E15.74896
G1 X111.575 Y116.674 E15.77667
G1 X111.256 Y115.901 E15.80448
G1 X110.748 Y115.237 E15.83229
G1 X110.084 Y114.729 E15.86009
G1 X109.311 Y114.41 E15.88791
G1 X108.485 Y114.301 E15.91562
G1 X107.659 Y114.41 E15.94333
G1 X106.886 Y114.729 E15.97114
G1 X106.222 Y115.237 E15.99895
G1 X105.714 Y115.901 E16.02676
G1 X105.395 Y116.674 E16.05457
G1 X105.286 Y117.5 E16.08228
G1 X105.395 Y118.326 E16.10999
G1 X105.714 Y119.099 E16.1378
G1 X106.222 Y119.763 E16.16561
G1 X106.886 Y120.271 E16.19342
G1 X107.659 Y120.59 E16.22123
G1 X108.485 Y120.699 E16.24894
G1 F2700 E11.24894
G0 F6000 X108.486 Y120.416
G0 X108.204 Y120.461
G0 X108.394 Y119.018
G0 X104.247 Y139.427
G0 X105.145 Y138.257
G0 X105.825 Y138.647
G0 X105.995 Y138.239
G1 F2700 E16.24894
G1 F1200 X103.993 Y136.237 E16.34311
G0 F6000 X103.905 Y135.583
G1 F1200 X106.65 Y138.329 E16.47225
G0 F6000 X107.236 Y138.349
G1 F1200 X103.884 Y134.997 E16.62992
G0 F6000 X103.884 Y134.431
G1 F1200 X107.802 Y138.349 E16.81421
G0 F6000 X108.368 Y138.349
G1 F1200 X103.884 Y133.865 E17.02512
G0 F6000 X103.367 Y133.349
G1 F1200 X101.884 Y131.866 E17.09488
G0 F6000 X101.884 Y132.431
G1 F1200 X102.802 Y133.349 E17.13806
G0 F6000 X102.236 Y133.349
G1 F1200 X101.884 Y132.997 E17.15461
G0 F6000 X101.445 Y132.997
G0 X101.445 Y131.3
G0 X101.884 Y131.3
G1 F1200 X108.934 Y138.349 E17.4862
G0 F6000 X109.499 Y138.349
G1 F1200 X101.884 Y130.734 E17.84439
G0 F6000 X101.884 Y130.169
G1 F1200 X110.065 Y138.349 E18.22917
G0 F6000 X110.576 Y138.295
G1 F1200 X101.884 Y129.603 E18.63802
G0 F6000 X101.884 Y129.037
G1 F1200 X111.053 Y138.206 E19.0693
G0 F6000 X111.453 Y138.04
G1 F1200 X101.884 Y128.472 E19.51937
G0 F6000 X101.884 Y127.906
G1 F1200 X111.813 Y137.834 E19.98638
G0 F6000 X112.133 Y137.589
G1 F1200 X101.884 Y127.34 E20.46846
G0 F6000 X101.884 Y126.775
G1 F1200 X112.405 Y137.295 E20.96331
G0 F6000 X112.65 Y136.975
G1 F1200 X101.884 Y126.209 E21.46971
G0 F6000 X101.884 Y125.643
G1 F1200 X112.83 Y136.589 E21.98458
G0 F6000 X112.987 Y136.18
G1 F1200 X92.384 Y115.578 E22.95366
G0 F6000 X92.384 Y116.143
G1 F1200 X101.59 Y125.348 E23.38666
G0 F6000 X101.024 Y125.348
G1 F1200 X92.384 Y116.709 E23.79303
G0 F6000 X92.384 Y117.275
G1 F1200 X100.458 Y125.348 E24.17278
G0 F6000 X99.892 Y125.348
G1 F1200 X92.384 Y117.84 E24.52594
G0 F6000 X92.384 Y118.406
G1 F1200 X99.327 Y125.348 E24.85249
G0 F6000 X98.761 Y125.348
G1 F1200 X96.884 Y123.472 E24.94076
G0 F6000 X96.761 Y123.349
G1 F1200 X92.384 Y118.972 E25.14664
G0 F6000 X92.384 Y119.537
G1 F1200 X96.196 Y123.349 E25.32594
G0 F6000 X95.63 Y123.349
G1 F1200 X92.384 Y120.103 E25.47862
G0 F6000 X92.42 Y120.705
G1 F1200 X95.028 Y123.313 E25.6013
G0 F6000 X94.314 Y123.164
G1 F1200 X92.569 Y121.419 E25.68338
G0 F6000 X92.161 Y121.587
G0 X92.444 Y122.11
G0 X92.957 Y122.778
G0 X93.625 Y123.291
G0 X94.255 Y123.552
G0 X96.445 Y124.037
G0 X96.884 Y124.037
G1 F1200 X98.195 Y125.348 E25.74504
G0 F6000 X97.63 Y125.348
G1 F1200 X96.884 Y124.603 E25.78011
G0 F6000 X96.884 Y125.169
G1 F1200 X97.064 Y125.348 E25.78855
G1 F2700 E20.78855
G0 F6000 X97.064 Y125.79
G0 X98.682 Y125.73
G0 X98.682 Y127.165
G0 X107.403 Y118.582
G0 X106.365 Y119.62
G0 X105.963 Y118.963
G0 X105.554 Y119.131
G1 F2700 E25.78855
G1 F1200 X96.884 Y110.461 E26.19636
G0 F6000 X96.884 Y109.895
G1 F1200 X105.221 Y118.231 E26.58848
G0 F6000 X105.136 Y117.581
G1 F1200 X97.204 Y109.649 E26.96158
G0 F6000 X97.77 Y109.649
G1 F1200 X105.182 Y117.062 E27.31024
G0 F6000 X105.262 Y116.575
G1 F1200 X98.335 Y109.649 E27.63604
G0 F6000 X98.901 Y109.649
G1 F1200 X105.427 Y116.175 E27.94301
G0 F6000 X105.602 Y115.784
G1 F1200 X99.467 Y109.649 E28.23158
G0 F6000 X100.032 Y109.649
G1 F1200 X105.846 Y115.463 E28.50505
G0 F6000 X106.092 Y115.143
G1 F1200 X100.598 Y109.649 E28.76347
G0 F6000 X101.164 Y109.649
G1 F1200 X106.406 Y114.892 E29.01006
G0 F6000 X106.727 Y114.647
G1 F1200 X101.73 Y109.649 E29.24513
G0 F6000 X101.884 Y109.238
G1 F1200 X107.108 Y114.462 E29.49085
G0 F6000 X107.508 Y114.296
G1 F1200 X101.884 Y108.672 E29.75539
G0 F6000 X101.884 Y108.106
G1 F1200 X107.982 Y114.204 E30.04222
G0 F6000 X108.482 Y114.139
G1 F1200 X101.884 Y107.541 E30.35257
G0 F6000 X101.884 Y106.975
G1 F1200 X109.132 Y114.223 E30.69349
G0 F6000 X109.991 Y114.516
G1 F1200 X101.884 Y106.409 E31.07482
G0 F6000 X101.884 Y105.843
G1 F1200 X120.085 Y124.044 E31.93094
G0 F6000 X120.085 Y123.479
G1 F1200 X101.884 Y105.278 E32.78706
G0 F6000 X101.884 Y104.712
