;FLAVOR:Marlin
;TIME:12649
;Filament used: 9.70485m
;Layer height: 0.2
;MINX:57.5
;MINY:53
;MINZ:0.2
;MAXX:177.5
;MAXY:182
;MAXZ:15
;Generated with Cura_SteamEngine 4.9.1
M140 S50
M105
M190 S50
M104 S200
M105
M109 S200
M82 ;absolute extrusion mode
; Ender 3 Custom Start G-code
G92 E0 ; Reset Extruder
G28 ; Home all axes
G1 Z2.0 F3000 ; Move Z Axis up little to prevent scratching of Heat Bed
G1 X0.1 Y20 Z0.3 F5000.0 ; Move to start position
G1 X0.1 Y200.0 Z0.3 F1500.0 E15 ; Draw the first line
G1 X0.4 Y200.0 Z0.3 F5000.0 ; Move to side a little
G1 X0.4 Y20 Z0.3 F1500.0 E30 ; Draw the second line
G92 E0 ; Reset Extruder
G1 Z2.0 F3000 ; Move Z Axis up little to prevent scratching of Heat Bed
G1 X5 Y20 Z0.3 F5000.0 ; Move over to prevent blob squish
G92 E0
G92 E0
G1 F2700 E-5
;LAYER_COUNT:75
;LAYER:0
M107
G0 F6000 X60.698 Y56.264 Z0.2
;TYPE:SKIRT
G1 F2700 E0
G1 F1200 X61.386 Y55.627 E0.03119
G1 X62.126 Y55.051 E0.06237
G1 X62.912 Y54.539 E0.09357
G1 X63.739 Y54.097 E0.12476
G1 X64.601 Y53.727 E0.15596
G1 X65.491 Y53.431 E0.18716
G1 X66.403 Y53.213 E0.21835
G1 X67.33 Y53.072 E0.24953
G1 X68.201 Y53.013 E0.27857
G1 X68.522 Y53.004 E0.28925
G1 X68.83 Y53 E0.29949
G1 X165.793 Y53 E3.5245
G1 X166.649 Y53.011 E3.55297
G1 X167.585 Y53.065 E3.58415
G1 X168.513 Y53.197 E3.61533
G1 X169.427 Y53.409 E3.64654
G1 X170.319 Y53.698 E3.67772
G1 X171.184 Y54.061 E3.70892
G1 X172.014 Y54.497 E3.74011
G1 X172.805 Y55.002 E3.77132
G1 X173.549 Y55.573 E3.80251
G1 X174.242 Y56.205 E3.83371
G1 X174.879 Y56.893 E3.86489
G1 X175.454 Y57.634 E3.89609
G1 X175.965 Y58.42 E3.92727
G1 X176.407 Y59.248 E3.95849
G1 X176.776 Y60.11 E3.98967
G1 X177.071 Y61 E4.02086
G1 X177.289 Y61.912 E4.05205
G1 X177.429 Y62.84 E4.08326
G1 X177.487 Y63.701 E4.11196
G1 X177.496 Y64.021 E4.12261
G1 X177.5 Y64.33 E4.13289
G1 X177.499 Y170.4 E7.66079
G1 X177.49 Y171.127 E7.68497
G1 X177.439 Y172.064 E7.71618
G1 X177.307 Y172.992 E7.74736
G1 X177.098 Y173.906 E7.77855
G1 X176.811 Y174.799 E7.80974
G1 X176.449 Y175.665 E7.84096
G1 X176.015 Y176.496 E7.87214
G1 X175.511 Y177.287 E7.90334
G1 X174.942 Y178.032 E7.93452
G1 X174.311 Y178.727 E7.96574
G1 X173.624 Y179.365 E7.99692
G1 X172.885 Y179.942 E8.02811
G1 X172.099 Y180.454 E8.05931
G1 X171.273 Y180.897 E8.09048
G1 X170.411 Y181.269 E8.12171
G1 X169.522 Y181.565 E8.15287
G1 X168.61 Y181.785 E8.18407
G1 X167.683 Y181.926 E8.21526
G1 X166.799 Y181.987 E8.24473
G1 X166.478 Y181.996 E8.25541
G1 X166.17 Y182 E8.26566
G1 X69.065 Y181.999 E11.49538
G1 X68.367 Y181.99 E11.5186
G1 X67.431 Y181.938 E11.54978
G1 X66.502 Y181.806 E11.58099
G1 X65.588 Y181.596 E11.61218
G1 X64.695 Y181.309 E11.64338
G1 X63.83 Y180.946 E11.67458
G1 X62.999 Y180.512 E11.70576
G1 X62.208 Y180.008 E11.73696
G1 X61.463 Y179.438 E11.76816
G1 X60.769 Y178.807 E11.79935
G1 X60.132 Y178.12 E11.83051
G1 X59.555 Y177.38 E11.86172
G1 X59.043 Y176.594 E11.89292
G1 X58.6 Y175.767 E11.92413
G1 X58.229 Y174.906 E11.95531
G1 X57.933 Y174.016 E11.98651
G1 X57.714 Y173.104 E12.0177
G1 X57.573 Y172.177 E12.04889
G1 X57.513 Y171.288 E12.07852
G1 X57.504 Y170.955 E12.0896
G1 X57.5 Y170.658 E12.09948
G1 X57.501 Y64.525 E15.62948
G1 X57.51 Y63.86 E15.6516
G1 X57.563 Y62.924 E15.68278
G1 X57.695 Y61.995 E15.71399
G1 X57.906 Y61.081 E15.74519
G1 X58.194 Y60.189 E15.77637
G1 X58.557 Y59.324 E15.80757
G1 X58.992 Y58.493 E15.83876
G1 X59.496 Y57.703 E15.86993
G1 X60.066 Y56.958 E15.90113
G1 X60.698 Y56.264 E15.93235
G0 F6000 X61.089 Y56.439
G1 F1200 X61.774 Y55.823 E15.96299
G1 X62.51 Y55.27 E15.99361
G1 X63.291 Y54.782 E16.02424
G1 X64.111 Y54.364 E16.05485
G1 X64.965 Y54.019 E16.08549
G1 X65.845 Y53.749 E16.1161
G1 X66.745 Y53.557 E16.14671
G1 X67.659 Y53.443 E16.17735
G1 X68.212 Y53.413 E16.19577
G1 X68.533 Y53.404 E16.20645
G1 X68.83 Y53.4 E16.21633
G1 X165.793 Y53.4 E19.44133
G1 X166.643 Y53.411 E19.4696
G1 X167.562 Y53.464 E19.50022
G1 X168.473 Y53.597 E19.53084
G1 X169.369 Y53.808 E19.56146
G1 X170.243 Y54.096 E19.59206
G1 X171.09 Y54.459 E19.62271
G1 X171.901 Y54.894 E19.65332
G1 X172.671 Y55.398 E19.68393
G1 X173.395 Y55.967 E19.71456
G1 X174.067 Y56.597 E19.74519
G1 X174.682 Y57.282 E19.77581
G1 X175.235 Y58.018 E19.80643
G1 X175.722 Y58.799 E19.83704
G1 X176.139 Y59.62 E19.86767
G1 X176.484 Y60.474 E19.89831
G1 X176.753 Y61.354 E19.92891
G1 X176.945 Y62.255 E19.95955
G1 X177.058 Y63.168 E19.99015
G1 X177.087 Y63.712 E20.00827
G1 X177.096 Y64.032 E20.01892
G1 X177.1 Y64.33 E20.02883
G1 X177.099 Y170.395 E23.55657
G1 X177.09 Y171.122 E23.58075
G1 X177.039 Y172.041 E23.61136
G1 X176.908 Y172.953 E23.642
G1 X176.698 Y173.849 E23.67261
G1 X176.412 Y174.724 E23.70323
G1 X176.051 Y175.571 E23.73385
G1 X175.617 Y176.383 E23.76448
G1 X175.115 Y177.155 E23.79511
G1 X174.547 Y177.88 E23.82574
G1 X173.919 Y178.553 E23.85635
G1 X173.235 Y179.169 E23.88697
G1 X172.5 Y179.723 E23.91758
G1 X171.72 Y180.212 E23.9482
G1 X170.9 Y180.631 E23.97883
G1 X170.047 Y180.977 E24.00945
G1 X169.167 Y181.248 E24.04007
G1 X168.267 Y181.441 E24.07069
G1 X167.353 Y181.556 E24.10133
G1 X166.788 Y181.587 E24.12015
G1 X166.467 Y181.596 E24.13083
G1 X166.17 Y181.6 E24.14071
G1 X69.07 Y181.599 E27.37026
G1 X68.372 Y181.59 E27.39348
G1 X67.453 Y181.538 E27.4241
G1 X66.542 Y181.407 E27.45471
G1 X65.646 Y181.197 E27.48532
G1 X64.771 Y180.91 E27.51595
G1 X63.924 Y180.548 E27.54658
G1 X63.112 Y180.114 E27.5772
G1 X62.341 Y179.612 E27.6078
G1 X61.616 Y179.044 E27.63844
G1 X60.943 Y178.415 E27.66908
G1 X60.328 Y177.731 E27.69967
G1 X59.774 Y176.996 E27.73028
G1 X59.286 Y176.215 E27.76091
G1 X58.867 Y175.395 E27.79154
G1 X58.521 Y174.542 E27.82216
G1 X58.251 Y173.662 E27.85277
G1 X58.058 Y172.761 E27.88342
G1 X57.944 Y171.848 E27.91402
G1 X57.913 Y171.277 E27.93304
G1 X57.904 Y170.944 E27.94412
G1 X57.9 Y170.658 E27.95363
G1 X57.901 Y64.531 E31.48343
G1 X57.91 Y63.866 E31.50555
G1 X57.962 Y62.946 E31.5362
G1 X58.094 Y62.035 E31.56682
G1 X58.305 Y61.139 E31.59743
G1 X58.592 Y60.264 E31.62806
G1 X58.955 Y59.418 E31.65868
G1 X59.389 Y58.606 E31.6893
G1 X59.892 Y57.835 E31.71992
G1 X60.461 Y57.111 E31.75055
G1 X61.089 Y56.439 E31.78114
G0 F6000 X61.481 Y56.617
G1 F1200 X62.162 Y56.024 E31.81117
G1 X62.894 Y55.494 E31.84123
G1 X63.669 Y55.031 E31.87126
G1 X64.482 Y54.638 E31.90129
G1 X65.327 Y54.318 E31.93134
G1 X66.196 Y54.075 E31.96136
G1 X67.084 Y53.909 E31.9914
G1 X68.223 Y53.813 E32.02942
G1 X68.544 Y53.804 E32.0401
G1 X68.83 Y53.8 E32.04961
G1 X165.793 Y53.8 E35.27462
G1 X166.637 Y53.811 E35.30269
G1 X167.539 Y53.864 E35.33274
G1 X168.432 Y53.996 E35.36277
G1 X169.31 Y54.207 E35.3928
G1 X170.166 Y54.495 E35.42284
G1 X170.993 Y54.857 E35.45287
G1 X171.785 Y55.292 E35.48292
G1 X172.536 Y55.794 E35.51296
G1 X173.239 Y56.361 E35.543
G1 X173.889 Y56.988 E35.57304
G1 X174.481 Y57.67 E35.60308
G1 X175.011 Y58.401 E35.63311
G1 X175.473 Y59.177 E35.66315
G1 X175.866 Y59.99 E35.69318
G1 X176.184 Y60.835 E35.72321
G1 X176.427 Y61.705 E35.75325
G1 X176.592 Y62.593 E35.7833
G1 X176.687 Y63.723 E35.82101
G1 X176.696 Y64.043 E35.83166
G1 X176.7 Y64.33 E35.84121
G1 X176.699 Y170.39 E39.36878
G1 X176.69 Y171.117 E39.39296
G1 X176.639 Y172.019 E39.42301
G1 X176.508 Y172.913 E39.45306
G1 X176.299 Y173.791 E39.48308
G1 X176.013 Y174.648 E39.51313
G1 X175.652 Y175.476 E39.54317
G1 X175.22 Y176.268 E39.57318
G1 X174.719 Y177.02 E39.60323
G1 X174.153 Y177.724 E39.63327
G1 X173.528 Y178.375 E39.66329
G1 X172.847 Y178.969 E39.69335
G1 X172.116 Y179.5 E39.7234
G1 X171.342 Y179.964 E39.75341
G1 X170.529 Y180.358 E39.78346
G1 X169.685 Y180.678 E39.81348
G1 X168.815 Y180.923 E39.84354
G1 X167.928 Y181.089 E39.87356
G1 X166.777 Y181.187 E39.91198
G1 X166.456 Y181.196 E39.92266
G1 X166.17 Y181.2 E39.93217
G1 X69.075 Y181.199 E43.16156
G1 X68.377 Y181.19 E43.18478
G1 X67.476 Y181.139 E43.2148
G1 X66.582 Y181.007 E43.24485
G1 X65.704 Y180.798 E43.27487
G1 X64.847 Y180.511 E43.30493
G1 X64.02 Y180.15 E43.33494
G1 X63.227 Y179.717 E43.365
G1 X62.476 Y179.216 E43.39502
G1 X61.772 Y178.65 E43.42507
G1 X61.121 Y178.024 E43.45511
G1 X60.528 Y177.343 E43.48514
G1 X59.998 Y176.612 E43.51517
G1 X59.534 Y175.837 E43.54521
G1 X59.14 Y175.024 E43.57526
G1 X58.82 Y174.18 E43.60528
G1 X58.576 Y173.31 E43.63534
G1 X58.41 Y172.422 E43.66538
G1 X58.313 Y171.267 E43.70393
G1 X58.304 Y170.934 E43.71501
G1 X58.3 Y170.658 E43.72419
G1 X58.301 Y64.536 E47.25383
G1 X58.31 Y63.871 E47.27595
G1 X58.362 Y62.969 E47.306
G1 X58.494 Y62.076 E47.33602
G1 X58.704 Y61.198 E47.36605
G1 X58.991 Y60.341 E47.39611
G1 X59.353 Y59.514 E47.42613
G1 X59.786 Y58.722 E47.45615
G1 X60.288 Y57.971 E47.4862
G1 X60.855 Y57.267 E47.51626
G1 X61.481 Y56.617 E47.54628
G1 F2700 E42.54628
;MESH:Base (Meshed).stl
G0 F6000 X69.31 Y63.335
G0 X69.31 Y64.81
G0 X165.718 Y64.782
G0 X165.9 Y170.4
;TYPE:WALL-INNER
G1 F2700 E47.54628
G1 F1200 X69.1 Y170.4 E50.76586
G1 X69.1 Y64.6 E54.28478
G1 X165.9 Y64.6 E57.50436
G1 X165.9 Y170.4 E61.02329
G0 F6000 X166.3 Y170.8
;TYPE:WALL-OUTER
G1 F1200 X68.7 Y170.8 E64.26948
G1 X68.7 Y64.2 E67.81501
G1 X166.3 Y64.2 E71.06119
G1 X166.3 Y170.8 E74.60673
G0 F6000 X166.03 Y170.53
G0 X165.79 Y170.01
G0 X165.51 Y170.01
;TYPE:SKIN
G1 F1200 X69.49 Y170.01 E77.80036
G1 X69.49 Y64.99 E81.29334
G1 X165.51 Y64.99 E84.48698
G1 X165.51 Y170.01 E87.97996
G1 F2700 E82.97996
G0 F6000 X165.79 Y170.01
G0 X69.722 Y170.29
G0 X69.722 Y169.849
G1 F2700 E87.97996
G1 F1200 X69.649 Y169.775 E87.98342
G0 F6000 X69.649 Y169.209
G1 F1200 X70.288 Y169.849 E88.0135
G0 F6000 X70.854 Y169.849
G1 F1200 X69.649 Y168.644 E88.07018
G0 F6000 X69.649 Y168.078
G1 F1200 X71.419 Y169.849 E88.15346
G0 F6000 X71.985 Y169.849
G1 F1200 X69.649 Y167.512 E88.26336
G0 F6000 X69.649 Y166.947
G1 F1200 X72.551 Y169.849 E88.39986
G0 F6000 X73.116 Y169.849
G1 F1200 X69.649 Y166.381 E88.56296
G0 F6000 X69.649 Y165.815
G1 F1200 X73.682 Y169.849 E88.75268
G0 F6000 X74.248 Y169.849
G1 F1200 X69.649 Y165.25 E88.96901
G0 F6000 X69.649 Y164.684
G1 F1200 X74.814 Y169.849 E89.21195
G0 F6000 X75.379 Y169.849
G1 F1200 X69.649 Y164.118 E89.4815
G0 F6000 X69.649 Y163.553
G1 F1200 X75.945 Y169.849 E89.77764
G0 F6000 X76.511 Y169.849
G1 F1200 X69.649 Y162.987 E90.10041
G0 F6000 X69.649 Y162.421
G1 F1200 X77.076 Y169.849 E90.44978
G0 F6000 X77.642 Y169.849
G1 F1200 X69.649 Y161.856 E90.82574
G0 F6000 X69.649 Y161.29
G1 F1200 X78.208 Y169.849 E91.22833
G0 F6000 X78.773 Y169.849
G1 F1200 X69.649 Y160.724 E91.65752
G0 F6000 X69.649 Y160.158
G1 F1200 X79.339 Y169.849 E92.11333
G0 F6000 X79.905 Y169.849
G1 F1200 X69.649 Y159.593 E92.59574
G0 F6000 X69.649 Y159.027
G1 F1200 X80.47 Y169.849 E93.10475
G0 F6000 X81.036 Y169.849
G1 F1200 X69.649 Y158.461 E93.64038
G0 F6000 X69.649 Y157.896
G1 F1200 X81.602 Y169.849 E94.20262
G0 F6000 X82.167 Y169.849
G1 F1200 X69.649 Y157.33 E94.79145
G0 F6000 X69.649 Y156.764
G1 F1200 X82.733 Y169.849 E95.4069
G0 F6000 X83.299 Y169.849
G1 F1200 X69.649 Y156.199 E96.04896
G0 F6000 X69.649 Y155.633
G1 F1200 X83.864 Y169.849 E96.71761
G0 F6000 X84.43 Y169.849
G1 F1200 X69.649 Y155.067 E97.41289
G0 F6000 X69.649 Y154.502
G1 F1200 X84.996 Y169.849 E98.13476
G0 F6000 X85.562 Y169.849
G1 F1200 X69.649 Y153.936 E98.88326
G0 F6000 X69.649 Y153.37
G1 F1200 X86.127 Y169.849 E99.65836
G0 F6000 X86.693 Y169.849
G1 F1200 X69.649 Y152.805 E100.46006
G0 F6000 X69.649 Y152.239
G1 F1200 X87.259 Y169.849 E101.28838
G0 F6000 X87.824 Y169.849
G1 F1200 X69.649 Y151.673 E102.1433
G0 F6000 X69.649 Y151.108
G1 F1200 X88.39 Y169.849 E103.02482
G0 F6000 X88.956 Y169.849
G1 F1200 X69.649 Y150.542 E103.93296
G0 F6000 X69.649 Y149.976
G1 F1200 X89.521 Y169.849 E104.8677
G0 F6000 X90.087 Y169.849
G1 F1200 X69.649 Y149.41 E105.82907
G0 F6000 X69.649 Y148.845
G1 F1200 X90.653 Y169.849 E106.81703
G0 F6000 X91.218 Y169.849
G1 F1200 X69.649 Y148.279 E107.83159
G0 F6000 X69.649 Y147.713
G1 F1200 X91.784 Y169.849 E108.87278
G0 F6000 X92.35 Y169.849
G1 F1200 X69.649 Y147.148 E109.94056
G0 F6000 X69.649 Y146.582
G1 F1200 X92.915 Y169.849 E111.03495
G0 F6000 X93.481 Y169.849
G1 F1200 X69.649 Y146.016 E112.15596
G0 F6000 X69.649 Y145.451
G1 F1200 X94.047 Y169.849 E113.30356
G0 F6000 X94.613 Y169.849
G1 F1200 X69.649 Y144.885 E114.47779
G0 F6000 X69.649 Y144.319
G1 F1200 X95.178 Y169.849 E115.67862
G0 F6000 X95.744 Y169.849
G1 F1200 X69.649 Y143.754 E116.90605
G0 F6000 X69.649 Y143.188
G1 F1200 X96.31 Y169.849 E118.1601
G0 F6000 X96.875 Y169.849
G1 F1200 X69.649 Y142.622 E119.44075
G0 F6000 X69.649 Y142.057
G1 F1200 X97.441 Y169.849 E120.74801
G0 F6000 X98.007 Y169.849
G1 F1200 X69.649 Y141.491 E122.08188
G0 F6000 X69.649 Y140.925
G1 F1200 X98.572 Y169.849 E123.44235
G0 F6000 X99.138 Y169.849
G1 F1200 X69.649 Y140.359 E124.82945
G0 F6000 X69.649 Y139.794
G1 F1200 X99.704 Y169.849 E126.24314
G0 F6000 X100.269 Y169.849
G1 F1200 X69.649 Y139.228 E127.68344
G0 F6000 X69.649 Y138.662
G1 F1200 X100.835 Y169.849 E129.15035
G0 F6000 X101.401 Y169.849
G1 F1200 X69.649 Y138.097 E130.64387
G0 F6000 X69.649 Y137.531
G1 F1200 X101.966 Y169.849 E132.16399
G0 F6000 X102.532 Y169.849
G1 F1200 X69.649 Y136.965 E133.71073
G0 F6000 X69.649 Y136.4
G1 F1200 X103.098 Y169.849 E135.28406
G0 F6000 X103.663 Y169.849
G1 F1200 X69.649 Y135.834 E136.884
G0 F6000 X69.649 Y135.268
G1 F1200 X104.229 Y169.849 E138.51056
G0 F6000 X104.795 Y169.849
G1 F1200 X69.649 Y134.703 E140.16372
G0 F6000 X69.649 Y134.137
G1 F1200 X105.361 Y169.849 E141.84351
G0 F6000 X105.926 Y169.849
G1 F1200 X69.649 Y133.571 E143.54989
G0 F6000 X69.649 Y133.006
G1 F1200 X106.492 Y169.849 E145.28287
G0 F6000 X107.058 Y169.849
G1 F1200 X69.649 Y132.44 E147.04247
G0 F6000 X69.649 Y131.874
G1 F1200 X107.623 Y169.849 E148.82868
G0 F6000 X108.189 Y169.849
G1 F1200 X69.649 Y131.309 E150.64148
G0 F6000 X69.649 Y130.743
G1 F1200 X108.755 Y169.849 E152.48091
G0 F6000 X109.32 Y169.849
G1 F1200 X69.649 Y130.177 E154.34693
G0 F6000 X69.649 Y129.611
G1 F1200 X109.886 Y169.849 E156.23958
G0 F6000 X110.452 Y169.849
G1 F1200 X69.649 Y129.046 E158.15883
G0 F6000 X69.649 Y128.48
G1 F1200 X111.017 Y169.849 E160.10468
G0 F6000 X111.583 Y169.849
G1 F1200 X69.649 Y127.914 E162.07715
G0 F6000 X69.649 Y127.349
G1 F1200 X112.149 Y169.849 E164.07622
G0 F6000 X112.714 Y169.849
G1 F1200 X69.649 Y126.783 E166.10189
G0 F6000 X69.649 Y126.217
G1 F1200 X113.28 Y169.849 E168.15418
G0 F6000 X113.846 Y169.849
G1 F1200 X69.649 Y125.652 E170.23307
G0 F6000 X69.649 Y125.086
G1 F1200 X114.411 Y169.849 E172.33856
G0 F6000 X114.977 Y169.849
G1 F1200 X69.649 Y124.52 E174.47068
G0 F6000 X69.649 Y123.955
G1 F1200 X115.543 Y169.849 E176.62939
G0 F6000 X116.109 Y169.849
G1 F1200 X69.649 Y123.389 E178.81472
G0 F6000 X69.649 Y122.823
G1 F1200 X116.674 Y169.849 E181.02666
G0 F6000 X117.24 Y169.849
G1 F1200 X69.649 Y122.258 E183.26519
G0 F6000 X69.649 Y121.692
G1 F1200 X117.806 Y169.849 E185.53035
G0 F6000 X118.371 Y169.849
G1 F1200 X69.649 Y121.126 E187.82211
G0 F6000 X69.649 Y120.56
G1 F1200 X118.937 Y169.849 E190.14049
G0 F6000 X119.503 Y169.849
G1 F1200 X69.649 Y119.995 E192.48547
G0 F6000 X69.649 Y119.429
G1 F1200 X120.068 Y169.849 E194.85705
G0 F6000 X120.634 Y169.849
G1 F1200 X69.649 Y118.863 E197.25525
G0 F6000 X69.649 Y118.298
G1 F1200 X121.2 Y169.849 E199.68005
G0 F6000 X121.765 Y169.849
G1 F1200 X69.649 Y117.732 E202.13145
G0 F6000 X69.648 Y117.166
G1 F1200 X122.331 Y169.849 E204.6095
G0 F6000 X122.897 Y169.849
G1 F1200 X69.648 Y116.6 E207.11417
G0 F6000 X69.648 Y116.034
G1 F1200 X123.462 Y169.849 E209.64544
G0 F6000 X124.028 Y169.849
G1 F1200 X69.648 Y115.469 E212.2033
G0 F6000 X69.648 Y114.903
G1 F1200 X124.594 Y169.849 E214.7878
G0 F6000 X125.16 Y169.849
G1 F1200 X69.648 Y114.337 E217.39891
G0 F6000 X69.648 Y113.772
G1 F1200 X125.725 Y169.849 E220.0366
G0 F6000 X126.291 Y169.849
G1 F1200 X69.648 Y113.206 E222.70091
G0 F6000 X69.648 Y112.64
G1 F1200 X126.857 Y169.849 E225.39185
G0 F6000 X127.422 Y169.849
G1 F1200 X69.648 Y112.075 E228.10936
G0 F6000 X69.648 Y111.509
G1 F1200 X127.988 Y169.849 E230.8535
G0 F6000 X128.554 Y169.849
G1 F1200 X69.648 Y110.943 E233.62425
G0 F6000 X69.648 Y110.377
G1 F1200 X129.119 Y169.849 E236.42161
G0 F6000 X129.685 Y169.849
G1 F1200 X69.648 Y109.812 E239.24557
G0 F6000 X69.648 Y109.246
