;FLAVOR:Marlin
;TIME:24275
;Filament used: 16.2776m
;Layer height: 0.2
;MINX:67.835
;MINY:63.335
;MINZ:0.2
;MAXX:167.165
;MAXY:171.665
;MAXZ:44
;Generated with Cura_SteamEngine 4.9.1
M140 S50
M105
M190 S50
M104 S200
M105
M109 S200
M82 ;absolute extrusion mode
; Ender 3 Custom Start G-code
G92 E0 ; Reset Extruder
G28 ; Home all axes
G1 Z2.0 F3000 ; Move Z Axis up little to prevent scratching of Heat Bed
G1 X0.1 Y20 Z0.3 F5000.0 ; Move to start position
G1 X0.1 Y200.0 Z0.3 F1500.0 E15 ; Draw the first line
G1 X0.4 Y200.0 Z0.3 F5000.0 ; Move to side a little
G1 X0.4 Y20 Z0.3 F1500.0 E30 ; Draw the second line
G92 E0 ; Reset Extruder
G1 Z2.0 F3000 ; Move Z Axis up little to prevent scratching of Heat Bed
G1 X5 Y20 Z0.3 F5000.0 ; Move over to prevent blob squish
G92 E0
G92 E0
G1 F2700 E-5
;LAYER_COUNT:220
;LAYER:0
M107
;MESH:Cover (Meshed).stl
G0 F6000 X73.001 Y124.499 Z0.2
;TYPE:WALL-INNER
G1 F2700 E0
G1 F1200 X162.999 Y124.499 E2.99335
G1 X162.999 Y67.501 E4.88911
G1 X73.001 Y67.501 E7.88245
G1 X73.001 Y124.499 E9.77821
G0 F6000 X73.401 Y124.099
;TYPE:WALL-OUTER
G1 F1200 X162.599 Y124.099 E12.74495
G1 X162.599 Y67.901 E14.6141
G1 X73.401 Y67.901 E17.58084
G1 X73.401 Y124.099 E19.44999
G1 F2700 E14.44999
G0 F6000 X73.101 Y124.099
G0 X156.532 Y124.689
G0 X156.705 Y126.022
G0 X155.837 Y126.837
G0 X155.577 Y127.179
G0 X155.413 Y127.575
G0 X155.356 Y128
G0 X155.413 Y128.425
G0 X155.577 Y128.821
G0 X156.532 Y129.744
;TYPE:WALL-INNER
G1 F2700 E19.44999
G1 F1200 X157 Y129.805 E19.46569
G1 X157.468 Y129.744 E19.48139
G1 X157.902 Y129.564 E19.49702
G1 X158.277 Y129.277 E19.51272
G1 X158.564 Y128.902 E19.52843
G1 X158.744 Y128.468 E19.54406
G1 X158.805 Y128 E19.55975
G1 X158.744 Y127.532 E19.57545
G1 X158.564 Y127.098 E19.59108
G1 X158.277 Y126.723 E19.60678
G1 X157.902 Y126.436 E19.62249
G1 X157.468 Y126.256 E19.63812
G1 X157 Y126.195 E19.65382
G1 X156.532 Y126.256 E19.66951
G1 X156.098 Y126.436 E19.68514
G1 X155.723 Y126.723 E19.70085
G1 X155.436 Y127.098 E19.71655
G1 X155.256 Y127.532 E19.73218
G1 X155.195 Y128 E19.74788
G1 X155.256 Y128.468 E19.76357
G1 X155.436 Y128.902 E19.7792
G1 X155.723 Y129.277 E19.79491
G1 X156.098 Y129.564 E19.81061
G1 X156.532 Y129.744 E19.82624
G0 F6000 X156.637 Y129.354
;TYPE:WALL-OUTER
G1 F1200 X157 Y129.402 E19.83842
G1 X157.363 Y129.354 E19.8506
G1 X157.701 Y129.214 E19.86277
G1 X157.992 Y128.992 E19.87494
G1 X158.214 Y128.701 E19.88711
G1 X158.354 Y128.363 E19.89928
G1 X158.402 Y128 E19.91146
G1 X158.354 Y127.637 E19.92364
G1 X158.214 Y127.299 E19.93581
G1 X157.992 Y127.008 E19.94798
G1 X157.701 Y126.786 E19.96015
G1 X157.363 Y126.646 E19.97232
G1 X157 Y126.598 E19.9845
G1 X156.637 Y126.646 E19.99668
G1 X156.299 Y126.786 E20.00885
G1 X156.008 Y127.008 E20.02102
G1 X155.786 Y127.299 E20.03319
G1 X155.646 Y127.637 E20.04536
G1 X155.598 Y128 E20.05754
G1 X155.646 Y128.363 E20.06972
G1 X155.786 Y128.701 E20.08189
G1 X156.008 Y128.992 E20.09406
G1 X156.299 Y129.214 E20.10623
G1 X156.637 Y129.354 E20.1184
G0 F6000 X156.523 Y129.778
G1 F2700 E15.1184
G0 F6000 X155.587 Y129.413
G0 X152.93 Y128.518
G0 X151.821 Y129.423
G0 X150.532 Y129.744
;TYPE:WALL-INNER
G1 F2700 E20.1184
G1 F1200 X151 Y129.805 E20.1341
G1 X151.468 Y129.744 E20.1498
G1 X151.902 Y129.564 E20.16542
G1 X152.277 Y129.277 E20.18113
G1 X152.564 Y128.902 E20.19684
G1 X152.744 Y128.468 E20.21246
G1 X152.805 Y128 E20.22816
G1 X152.744 Y127.532 E20.24386
G1 X152.564 Y127.098 E20.25949
G1 X152.277 Y126.723 E20.27519
G1 X151.902 Y126.436 E20.2909
G1 X151.468 Y126.256 E20.30653
G1 X151 Y126.195 E20.32222
G1 X150.532 Y126.256 E20.33792
G1 X150.098 Y126.436 E20.35355
G1 X149.723 Y126.723 E20.36925
G1 X149.436 Y127.098 E20.38496
G1 X149.256 Y127.532 E20.40059
G1 X149.195 Y128 E20.41628
G1 X149.256 Y128.468 E20.43198
G1 X149.436 Y128.902 E20.44761
G1 X149.723 Y129.277 E20.46332
G1 X150.098 Y129.564 E20.47902
G1 X150.532 Y129.744 E20.49465
G0 F6000 X150.637 Y129.354
;TYPE:WALL-OUTER
G1 F1200 X151 Y129.402 E20.50683
G1 X151.363 Y129.354 E20.51901
G1 X151.701 Y129.214 E20.53117
G1 X151.992 Y128.992 E20.54335
G1 X152.214 Y128.701 E20.55552
G1 X152.354 Y128.363 E20.56769
G1 X152.402 Y128 E20.57987
G1 X152.354 Y127.637 E20.59205
G1 X152.214 Y127.299 E20.60421
G1 X151.992 Y127.008 E20.61639
G1 X151.701 Y126.786 E20.62856
G1 X151.363 Y126.646 E20.64073
G1 X151 Y126.598 E20.65291
G1 X150.637 Y126.646 E20.66509
G1 X150.299 Y126.786 E20.67726
G1 X150.008 Y127.008 E20.68943
G1 X149.786 Y127.299 E20.7016
G1 X149.646 Y127.637 E20.71377
G1 X149.598 Y128 E20.72595
G1 X149.646 Y128.363 E20.73813
G1 X149.786 Y128.701 E20.7503
G1 X150.008 Y128.992 E20.76247
G1 X150.299 Y129.214 E20.77464
G1 X150.637 Y129.354 E20.78681
G0 F6000 X150.523 Y129.778
G1 F2700 E15.78681
G0 F6000 X149.587 Y129.413
G0 X146.93 Y128.518
G0 X145.821 Y129.423
G0 X144.532 Y129.744
;TYPE:WALL-INNER
G1 F2700 E20.78681
G1 F1200 X145 Y129.805 E20.80251
G1 X145.468 Y129.744 E20.81821
G1 X145.902 Y129.564 E20.83383
G1 X146.277 Y129.277 E20.84954
G1 X146.564 Y128.902 E20.86525
G1 X146.744 Y128.468 E20.88087
G1 X146.805 Y128 E20.89657
G1 X146.744 Y127.532 E20.91227
G1 X146.564 Y127.098 E20.92789
G1 X146.277 Y126.723 E20.9436
G1 X145.902 Y126.436 E20.95931
G1 X145.468 Y126.256 E20.97493
G1 X145 Y126.195 E20.99063
G1 X144.532 Y126.256 E21.00633
G1 X144.098 Y126.436 E21.02196
G1 X143.723 Y126.723 E21.03766
G1 X143.436 Y127.098 E21.05337
G1 X143.256 Y127.532 E21.069
G1 X143.195 Y128 E21.08469
G1 X143.256 Y128.468 E21.10039
G1 X143.436 Y128.902 E21.11602
G1 X143.723 Y129.277 E21.13172
G1 X144.098 Y129.564 E21.14743
G1 X144.532 Y129.744 E21.16306
G0 F6000 X144.637 Y129.354
;TYPE:WALL-OUTER
G1 F1200 X145 Y129.402 E21.17524
G1 X145.363 Y129.354 E21.18741
G1 X145.701 Y129.214 E21.19958
G1 X145.992 Y128.992 E21.21176
G1 X146.214 Y128.701 E21.22393
G1 X146.354 Y128.363 E21.2361
G1 X146.402 Y128 E21.24828
G1 X146.354 Y127.637 E21.26045
G1 X146.214 Y127.299 E21.27262
G1 X145.992 Y127.008 E21.2848
G1 X145.701 Y126.786 E21.29697
G1 X145.363 Y126.646 E21.30914
G1 X145 Y126.598 E21.32132
G1 X144.637 Y126.646 E21.3335
G1 X144.299 Y126.786 E21.34566
G1 X144.008 Y127.008 E21.35784
G1 X143.786 Y127.299 E21.37001
G1 X143.646 Y127.637 E21.38218
G1 X143.598 Y128 E21.39436
G1 X143.646 Y128.363 E21.40654
G1 X143.786 Y128.701 E21.4187
G1 X144.008 Y128.992 E21.43088
G1 X144.299 Y129.214 E21.44305
G1 X144.637 Y129.354 E21.45522
G0 F6000 X144.523 Y129.778
G1 F2700 E16.45522
G0 F6000 X144.001 Y129.73
G0 X144.733 Y128.458
G0 X136.864 Y141.768
G0 X137.598 Y140.499
G0 X139.195 Y142.579
G0 X139.678 Y143.747
G0 X139.839 Y144.972
G0 X139.839 Y148.528
G0 X139.678 Y149.753
G0 X139.195 Y150.921
G0 X138.425 Y151.925
G0 X137.421 Y152.695
G0 X136.253 Y153.178
G0 X135.028 Y153.339
G0 X125.182 Y153.682
G0 X124.839 Y160.028
G0 X124.678 Y161.253
G0 X124.195 Y162.421
G0 X123.425 Y163.425
G0 X122.421 Y164.195
G0 X121.476 Y164.585
G0 X120.039 Y165
;TYPE:WALL-INNER
G1 F2700 E21.45522
G1 F1200 X121.295 Y164.835 E21.49735
G1 X122.503 Y164.335 E21.54084
G1 X123.539 Y163.539 E21.58429
G1 X124.335 Y162.503 E21.62774
G1 X124.835 Y161.295 E21.67123
G1 X125 Y160.039 E21.71336
G1 X125 Y153.5 E21.93085
G1 X135.039 Y153.5 E22.26475
G1 X136.295 Y153.335 E22.30688
G1 X137.503 Y152.835 E22.35037
G1 X138.539 Y152.039 E22.39382
G1 X139.335 Y151.003 E22.43727
G1 X139.835 Y149.795 E22.48076
G1 X140 Y148.539 E22.52289
G1 X140 Y144.961 E22.6419
G1 X139.835 Y143.705 E22.68403
G1 X139.335 Y142.497 E22.72751
G1 X138.539 Y141.461 E22.77097
G1 X137.503 Y140.665 E22.81442
G1 X136.295 Y140.165 E22.85791
G1 X135.039 Y140 E22.90004
G1 X125 Y140 E23.23394
G1 X125 Y133.461 E23.45143
G1 X124.835 Y132.205 E23.49356
G1 X124.335 Y130.997 E23.53704
G1 X123.539 Y129.961 E23.5805
G1 X122.503 Y129.165 E23.62395
G1 X121.295 Y128.665 E23.66744
G1 X120.039 Y128.5 E23.70957
G1 X113.961 Y128.5 E23.91172
G1 X112.705 Y128.665 E23.95386
G1 X111.497 Y129.165 E23.99734
G1 X110.461 Y129.961 E24.0408
G1 X109.665 Y130.997 E24.08425
G1 X109.165 Y132.205 E24.12773
G1 X109 Y133.461 E24.16987
G1 X109 Y140 E24.38736
G1 X98.961 Y140 E24.72125
G1 X97.705 Y140.165 E24.76339
G1 X96.497 Y140.665 E24.80687
G1 X95.461 Y141.461 E24.85033
G1 X94.665 Y142.497 E24.89378
G1 X94.165 Y143.705 E24.93726
G1 X94 Y144.961 E24.9794
G1 X94 Y148.539 E25.0984
G1 X94.165 Y149.795 E25.14054
G1 X94.665 Y151.003 E25.18402
G1 X95.461 Y152.039 E25.22747
G1 X96.497 Y152.835 E25.27093
G1 X97.705 Y153.335 E25.31441
G1 X98.961 Y153.5 E25.35655
G1 X109 Y153.5 E25.69044
G1 X109 Y160.039 E25.90793
G1 X109.165 Y161.295 E25.95007
G1 X109.665 Y162.503 E25.99355
G1 X110.461 Y163.539 E26.037
G1 X111.497 Y164.335 E26.08046
G1 X112.705 Y164.835 E26.12394
G1 X113.961 Y165 E26.16607
G1 X120.039 Y165 E26.36823
G0 F6000 X120.013 Y164.6
;TYPE:WALL-OUTER
G1 F1200 X121.191 Y164.445 E26.40775
G1 X122.301 Y163.986 E26.4477
G1 X123.254 Y163.254 E26.48767
G1 X123.986 Y162.301 E26.52763
G1 X124.445 Y161.191 E26.56759
G1 X124.6 Y160.013 E26.6071
G1 X124.6 Y153.1 E26.83703
G1 X135.013 Y153.1 E27.18337
G1 X136.191 Y152.945 E27.22289
G1 X137.301 Y152.486 E27.26284
G1 X138.254 Y151.754 E27.30281
G1 X138.986 Y150.801 E27.34277
G1 X139.445 Y149.691 E27.38272
G1 X139.6 Y148.513 E27.42224
G1 X139.6 Y144.987 E27.53952
G1 X139.445 Y143.809 E27.57904
G1 X138.986 Y142.699 E27.61899
G1 X138.254 Y141.746 E27.65895
G1 X137.301 Y141.014 E27.69892
G1 X136.191 Y140.555 E27.73887
G1 X135.013 Y140.4 E27.77839
G1 X124.6 Y140.4 E28.12473
G1 X124.6 Y133.487 E28.35466
G1 X124.445 Y132.309 E28.39417
G1 X123.986 Y131.199 E28.43413
G1 X123.254 Y130.246 E28.47409
G1 X122.301 Y129.514 E28.51406
G1 X121.191 Y129.055 E28.55401
G1 X120.013 Y128.9 E28.59353
G1 X113.987 Y128.9 E28.79396
G1 X112.809 Y129.055 E28.83347
G1 X111.699 Y129.514 E28.87342
G1 X110.746 Y130.246 E28.91339
G1 X110.014 Y131.199 E28.95336
G1 X109.555 Y132.309 E28.99331
G1 X109.4 Y133.487 E29.03283
G1 X109.4 Y140.4 E29.26276
G1 X98.987 Y140.4 E29.60909
G1 X97.809 Y140.555 E29.64861
G1 X96.699 Y141.014 E29.68856
G1 X95.746 Y141.746 E29.72853
G1 X95.014 Y142.699 E29.7685
G1 X94.555 Y143.809 E29.80845
G1 X94.4 Y144.987 E29.84797
G1 X94.4 Y148.513 E29.96524
G1 X94.555 Y149.691 E30.00476
G1 X95.014 Y150.801 E30.04471
G1 X95.746 Y151.754 E30.08468
G1 X96.699 Y152.486 E30.12465
G1 X97.809 Y152.945 E30.1646
G1 X98.987 Y153.1 E30.20412
G1 X109.4 Y153.1 E30.55045
G1 X109.4 Y160.013 E30.78038
G1 X109.555 Y161.191 E30.8199
G1 X110.014 Y162.301 E30.85985
G1 X110.746 Y163.254 E30.89982
G1 X111.699 Y163.986 E30.93979
G1 X112.809 Y164.445 E30.97974
G1 X113.987 Y164.6 E31.01926
G1 X120.013 Y164.6 E31.21968
G0 F6000 X120.041 Y165.039
G1 F2700 E26.21968
G0 F6000 X122.599 Y164.501
G0 X121.864 Y163.232
G0 X122.599 Y171.665
G0 X122.599 Y170.19
G0 X165.9 Y170.4
;TYPE:WALL-INNER
G1 F2700 E31.21968
G1 F1200 X69.1 Y170.4 E34.43926
G1 X69.1 Y64.6 E37.95818
G1 X165.9 Y64.6 E41.17777
G1 X165.9 Y170.4 E44.69669
G0 F6000 X166.3 Y170.8
;TYPE:WALL-OUTER
G1 F1200 X68.7 Y170.8 E47.94288
G1 X68.7 Y64.2 E51.48841
G1 X166.3 Y64.2 E54.7346
G1 X166.3 Y170.8 E58.28013
G0 F6000 X166.03 Y170.53
G0 X165.79 Y170.01
G0 X165.51 Y170.01
;TYPE:SKIN
G1 F1200 X69.49 Y170.01 E61.47377
G1 X69.49 Y64.99 E64.96674
G1 X165.51 Y64.99 E68.16038
G1 X165.51 Y170.01 E71.65336
G1 F2700 E66.65336
G0 F6000 X165.79 Y170.01
G0 X139.429 Y170.189
G0 X139.432 Y171.665
G0 X137.637 Y151.137
G0 X138.675 Y152.175
G0 X139.432 Y151.058
G0 X139.676 Y151.2
G1 F2700 E71.65336
G1 F1200 X140.215 Y149.897 E71.70026
G1 X140.39 Y148.564 E71.74498
G1 X140.39 Y144.936 E71.86565
G1 X140.215 Y143.603 E71.91036
G1 X139.676 Y142.3 E71.95726
G1 X138.818 Y141.182 E72.00413
G1 X137.7 Y140.324 E72.05101
G1 X136.397 Y139.785 E72.09791
G1 X135.064 Y139.61 E72.14262
G1 X125.39 Y139.61 E72.46438
G1 X125.39 Y133.436 E72.66973
G1 X125.215 Y132.103 E72.71445
G1 X124.676 Y130.8 E72.76135
G1 X123.818 Y129.682 E72.80822
G1 X122.7 Y128.824 E72.85509
G1 X121.397 Y128.285 E72.90199
G1 X120.064 Y128.11 E72.94671
G1 X113.936 Y128.11 E73.15053
G1 X112.603 Y128.285 E73.19524
G1 X111.3 Y128.824 E73.24214
G1 X110.182 Y129.682 E73.28901
G1 X109.324 Y130.8 E73.33589
G1 X108.785 Y132.103 E73.38279
G1 X108.61 Y133.436 E73.4275
G1 X108.61 Y139.61 E73.63285
G1 X98.936 Y139.61 E73.95461
G1 X97.603 Y139.785 E73.99933
G1 X96.3 Y140.324 E74.04623
G1 X95.182 Y141.182 E74.0931
G1 X94.324 Y142.3 E74.13997
G1 X93.785 Y143.603 E74.18687
G1 X93.61 Y144.936 E74.23159
G1 X93.61 Y148.564 E74.35226
G1 X93.785 Y149.897 E74.39697
G1 X94.324 Y151.2 E74.44387
G1 X95.182 Y152.318 E74.49074
G1 X96.3 Y153.176 E74.53762
G1 X97.603 Y153.715 E74.58452
G1 X98.936 Y153.89 E74.62923
G1 X108.61 Y153.89 E74.95099
G1 X108.61 Y160.064 E75.15634
G1 X108.785 Y161.397 E75.20106
G1 X109.324 Y162.7 E75.24795
G1 X110.182 Y163.818 E75.29483
G1 X111.3 Y164.676 E75.3417
G1 X112.603 Y165.215 E75.3886
G1 X113.936 Y165.39 E75.43332
G1 X120.064 Y165.39 E75.63713
G1 X121.397 Y165.215 E75.68185
G1 X122.7 Y164.676 E75.72875
G1 X123.818 Y163.818 E75.77562
G1 X124.676 Y162.7 E75.8225
G1 X125.215 Y161.397 E75.8694
G1 X125.39 Y160.064 E75.91411
G1 X125.39 Y153.89 E76.11946
G1 X135.064 Y153.89 E76.44122
G1 X136.397 Y153.715 E76.48594
G1 X137.7 Y153.176 E76.53283
G1 X138.818 Y152.318 E76.57971
G1 X139.676 Y151.2 E76.62658
G1 F2700 E71.62658
G0 F6000 X139.432 Y151.058
G0 X139.761 Y149.009
G0 X140.191 Y144.948
G0 X138.736 Y145.043
G0 X145.136 Y128.513
G0 X145.518 Y129.93
G0 X145.959 Y129.659
G0 X146.099 Y129.905
G1 F2700 E76.62658
G1 F1200 X146.556 Y129.556 E76.64571
G1 X146.905 Y129.099 E76.66483
G1 X147.124 Y128.57 E76.68387
G1 X147.199 Y128 E76.703
G1 X147.124 Y127.43 E76.72212
G1 X146.905 Y126.901 E76.74116
G1 X146.556 Y126.444 E76.76029
G1 X146.099 Y126.095 E76.77941
G1 X145.57 Y125.876 E76.79845
G1 X145 Y125.801 E76.81758
G1 X144.43 Y125.876 E76.8367
G1 X143.901 Y126.095 E76.85574
G1 X143.444 Y126.444 E76.87487
G1 X143.095 Y126.901 E76.89399
G1 X142.876 Y127.43 E76.91303
G1 X142.801 Y128 E76.93215
G1 X142.876 Y128.57 E76.95128
G1 X143.095 Y129.099 E76.97032
G1 X143.444 Y129.556 E76.98944
G1 X143.901 Y129.905 E77.00857
G1 X144.43 Y130.124 E77.02761
G1 X145 Y130.199 E77.04673
G1 X145.57 Y130.124 E77.06586
G1 X146.099 Y129.905 E77.0849
G1 F2700 E72.0849
G0 F6000 X145.959 Y129.659
G0 X146.413 Y129.413
G0 X145.375 Y128.375
G0 X150.625 Y128.375
G0 X149.587 Y129.413
G0 X151.498 Y129.851
G0 X151.57 Y130.124
G1 F2700 E77.0849
G1 F1200 X152.099 Y129.905 E77.10394
G1 X152.556 Y129.556 E77.12307
G1 X152.905 Y129.099 E77.14219
G1 X153.124 Y128.57 E77.16123
G1 X153.199 Y128 E77.18036
G1 X153.124 Y127.43 E77.19948
G1 X152.905 Y126.901 E77.21852
G1 X152.556 Y126.444 E77.23765
G1 X152.099 Y126.095 E77.25677
G1 X151.57 Y125.876 E77.27581
G1 X151 Y125.801 E77.29494
G1 X150.43 Y125.876 E77.31406
G1 X149.901 Y126.095 E77.3331
G1 X149.444 Y126.444 E77.35223
G1 X149.095 Y126.901 E77.37135
G1 X148.876 Y127.43 E77.39039
G1 X148.801 Y128 E77.40952
G1 X148.876 Y128.57 E77.42864
G1 X149.095 Y129.099 E77.44768
G1 X149.444 Y129.556 E77.46681
G1 X149.901 Y129.905 E77.48593
G1 X150.43 Y130.124 E77.50497
G1 X151 Y130.199 E77.52409
G1 X151.57 Y130.124 E77.54322
G1 F2700 E72.54322
G0 F6000 X151.498 Y129.851
G0 X152.413 Y129.413
G0 X155.07 Y128.518
G0 X156.179 Y129.423
G0 X157.498 Y129.851
G0 X157.57 Y130.124
G1 F2700 E77.54322
G1 F1200 X158.099 Y129.905 E77.56226
G1 X158.556 Y129.556 E77.58138
G1 X158.905 Y129.099 E77.60051
G1 X159.124 Y128.57 E77.61955
G1 X159.199 Y128 E77.63867
G1 X159.124 Y127.43 E77.6578
G1 X158.905 Y126.901 E77.67684
G1 X158.556 Y126.444 E77.69596
G1 X158.099 Y126.095 E77.71509
G1 X157.57 Y125.876 E77.73413
G1 X157 Y125.801 E77.75325
G1 X156.43 Y125.876 E77.77238
G1 X155.901 Y126.095 E77.79142
G1 X155.444 Y126.444 E77.81054
G1 X155.095 Y126.901 E77.82967
G1 X154.876 Y127.43 E77.84871
G1 X154.801 Y128 E77.86783
G1 X154.876 Y128.57 E77.88696
G1 X155.095 Y129.099 E77.906
G1 X155.444 Y129.556 E77.92512
G1 X155.901 Y129.905 E77.94425
G1 X156.43 Y130.124 E77.96329
G1 X157 Y130.199 E77.98241
G1 X157.57 Y130.124 E78.00153
G1 F2700 E73.00153
G0 F6000 X157.498 Y129.851
G0 X158.423 Y128.821
G0 X158.93 Y127.482
G0 X158.93 Y124.689
G0 X163.109 Y124.639
G0 X163.389 Y124.889
G1 F2700 E78.00153
